( pcb2gcode 1.2.0 )
      
G94 ( Millimeters per minute feed rate. )
G21 ( Units == Millimeters. )

G90 ( Absolute coordinates. )
S30000 ( RPM spindle speed. )
F152.40000 ( Feedrate. )
G64 P0.05080 ( set maximum deviation from commanded toolpath )

M3 ( Spindle on clockwise. )
G04 P0 ( dwell for no time -- G64 should not smooth over this point )
G01
G00 Z2.03200 ( retract )

G00 X43.84040 Y24.29280 ( rapid move to begin. )
G01 Z-0.15240
G04 P0 ( dwell for no time -- G64 should not smooth over this point )
G01
X43.84040 Y24.29280
X43.86580 Y24.29280
X43.86580 Y24.24200
X43.89120 Y24.24200
X43.89120 Y24.21660
X43.91660 Y24.21660
X43.91660 Y24.19120
X43.94200 Y24.19120
X43.94200 Y24.16580
X43.96740 Y24.16580
X43.96740 Y24.14040
X43.99280 Y24.14040
X43.99280 Y24.11500
X44.01820 Y24.11500
X44.01820 Y24.08960
X44.04360 Y24.08960
X44.04360 Y24.06420
X44.06900 Y24.06420
X44.06900 Y24.03880
X44.09440 Y24.03880
X44.09440 Y24.01340
X44.11980 Y24.01340
X44.11980 Y23.98800
X44.14520 Y23.98800
X44.14520 Y23.96260
X44.17060 Y23.96260
X44.17060 Y23.93720
X44.19600 Y23.93720
X44.19600 Y23.91180
X44.22140 Y23.91180
X44.22140 Y23.88640
X44.24680 Y23.88640
X44.24680 Y23.86100
X44.27220 Y23.86100
X44.27220 Y23.83560
X44.29760 Y23.83560
X44.29760 Y23.81020
X44.32300 Y23.81020
X44.32300 Y23.78480
X44.34840 Y23.78480
X44.34840 Y23.75940
X44.37380 Y23.75940
X44.37380 Y23.73400
X44.39920 Y23.73400
X44.39920 Y23.70860
X44.42460 Y23.70860
X44.42460 Y23.68320
X44.45000 Y23.68320
X44.45000 Y23.65780
X44.47540 Y23.65780
X44.47540 Y23.63240
X44.50080 Y23.63240
X44.50080 Y23.60700
X44.52620 Y23.60700
X44.52620 Y23.58160
X44.55160 Y23.58160
X44.55160 Y23.55620
X44.57700 Y23.55620
X44.57700 Y23.53080
X44.60240 Y23.53080
X44.60240 Y23.50540
X44.62780 Y23.50540
X44.62780 Y23.48000
X44.65320 Y23.48000
X44.65320 Y23.42920
X44.67860 Y23.42920
X44.67860 Y22.33700
X45.28820 Y22.33700
X45.28820 Y20.94000
X44.85640 Y20.94000
X44.85640 Y19.79700
X45.28820 Y19.79700
X45.28820 Y18.40000
X44.85640 Y18.40000
X44.85640 Y17.25700
X45.28820 Y17.25700
X45.28820 Y15.86000
X44.85640 Y15.86000
X44.85640 Y14.71700
X45.28820 Y14.71700
X45.28820 Y13.32000
X44.85640 Y13.32000
X44.85640 Y12.17700
X45.28820 Y12.17700
X45.28820 Y10.78000
X44.85640 Y10.78000
X44.85640 Y9.63700
X45.28820 Y9.63700
X45.28820 Y8.24000
X44.85640 Y8.24000
X44.85640 Y7.09700
X45.28820 Y7.09700
X45.28820 Y5.70000
X44.85640 Y5.70000
X44.85640 Y4.55700
X45.28820 Y4.55700
X45.28820 Y3.16000
X43.68800 Y3.16000
X43.68800 Y4.55700
X44.11980 Y4.55700
X44.11980 Y5.70000
X43.68800 Y5.70000
X43.68800 Y7.09700
X44.11980 Y7.09700
X44.11980 Y8.24000
X43.68800 Y8.24000
X43.68800 Y9.63700
X44.11980 Y9.63700
X44.11980 Y10.78000
X43.68800 Y10.78000
X43.68800 Y12.17700
X44.11980 Y12.17700
X44.11980 Y13.32000
X43.68800 Y13.32000
X43.68800 Y14.71700
X44.11980 Y14.71700
X44.11980 Y15.86000
X43.68800 Y15.86000
X43.68800 Y17.25700
X44.11980 Y17.25700
X44.11980 Y18.40000
X43.68800 Y18.40000
X43.68800 Y19.79700
X44.11980 Y19.79700
X44.11980 Y20.94000
X43.68800 Y20.94000
X43.68800 Y22.33700
X44.29760 Y22.33700
X44.29760 Y23.20060
X44.27220 Y23.20060
X44.27220 Y23.25140
X44.24680 Y23.25140
X44.24680 Y23.27680
X44.22140 Y23.27680
X44.22140 Y23.30220
X44.19600 Y23.30220
X44.19600 Y23.32760
X44.17060 Y23.32760
X44.17060 Y23.35300
X44.14520 Y23.35300
X44.14520 Y23.37840
X44.11980 Y23.37840
X44.11980 Y23.40380
X44.09440 Y23.40380
X44.09440 Y23.42920
X44.06900 Y23.42920
X44.06900 Y23.45460
X44.04360 Y23.45460
X44.04360 Y23.48000
X44.01820 Y23.48000
X44.01820 Y23.50540
X43.99280 Y23.50540
X43.99280 Y23.53080
X43.96740 Y23.53080
X43.96740 Y23.55620
X43.94200 Y23.55620
X43.94200 Y23.58160
X43.91660 Y23.58160
X43.91660 Y23.60700
X43.89120 Y23.60700
X43.89120 Y23.63240
X43.86580 Y23.63240
X43.86580 Y23.65780
X43.84040 Y23.65780
X43.84040 Y23.68320
X43.81500 Y23.68320
X43.81500 Y23.70860
X43.78960 Y23.70860
X43.78960 Y23.73400
X43.76420 Y23.73400
X43.76420 Y23.75940
X43.73880 Y23.75940
X43.73880 Y23.78480
X43.71340 Y23.78480
X43.71340 Y23.81020
X43.68800 Y23.81020
X43.68800 Y23.83560
X43.66260 Y23.83560
X43.66260 Y23.86100
X43.63720 Y23.86100
X43.63720 Y23.88640
X43.61180 Y23.88640
X43.61180 Y23.91180
X43.58640 Y23.91180
X43.58640 Y23.93720
X43.56100 Y23.93720
X43.56100 Y23.96260
X43.53560 Y23.96260
X43.53560 Y23.98800
X34.62020 Y23.98800
X34.62020 Y23.96260
X34.59480 Y23.96260
X34.59480 Y23.93720
X34.56940 Y23.93720
X34.56940 Y23.91180
X34.54400 Y23.91180
X34.54400 Y23.88640
X34.51860 Y23.88640
X34.51860 Y23.86100
X34.49320 Y23.86100
X34.49320 Y23.83560
X34.46780 Y23.83560
X34.46780 Y23.81020
X34.44240 Y23.81020
X34.44240 Y23.78480
X34.41700 Y23.78480
X34.41700 Y23.75940
X34.39160 Y23.75940
X34.39160 Y23.73400
X34.36620 Y23.73400
X34.36620 Y23.70860
X34.34080 Y23.70860
X34.34080 Y23.68320
X34.31540 Y23.68320
X34.31540 Y23.65780
X34.29000 Y23.65780
X34.29000 Y23.63240
X34.26460 Y23.63240
X34.26460 Y23.60700
X34.23920 Y23.60700
X34.23920 Y23.58160
X34.21380 Y23.58160
X34.21380 Y23.55620
X34.18840 Y23.55620
X34.18840 Y23.53080
X34.16300 Y23.53080
X34.16300 Y23.50540
X34.13760 Y23.50540
X34.13760 Y23.48000
X34.11220 Y23.48000
X34.11220 Y23.45460
X34.08680 Y23.45460
X34.08680 Y23.42920
X34.06140 Y23.42920
X34.06140 Y23.40380
X34.03600 Y23.40380
X34.03600 Y23.37840
X34.01060 Y23.37840
X34.01060 Y23.35300
X33.98520 Y23.35300
X33.98520 Y23.32760
X33.95980 Y23.32760
X33.95980 Y23.30220
X33.93440 Y23.30220
X33.93440 Y23.27680
X33.90900 Y23.27680
X33.90900 Y23.25140
X33.88360 Y23.25140
X33.88360 Y23.22600
X33.85820 Y23.22600
X33.85820 Y23.20060
X33.83280 Y23.20060
X33.83280 Y23.17520
X33.80740 Y23.17520
X33.80740 Y23.14980
X33.78200 Y23.14980
X33.78200 Y23.12440
X33.75660 Y23.12440
X33.75660 Y23.09900
X33.73120 Y23.09900
X33.73120 Y23.07360
X33.70580 Y23.07360
X33.70580 Y23.04820
X33.68040 Y23.04820
X33.68040 Y23.02280
X33.65500 Y23.02280
X33.65500 Y22.99740
X33.62960 Y22.99740
X33.62960 Y22.97200
X33.60420 Y22.97200
X33.60420 Y22.94660
X33.57880 Y22.94660
X33.57880 Y22.92120
X33.55340 Y22.92120
X33.55340 Y22.89580
X33.52800 Y22.89580
X33.52800 Y22.87040
X33.50260 Y22.87040
X33.50260 Y22.84500
X33.47720 Y22.84500
X33.47720 Y22.81960
X33.45180 Y22.81960
X33.45180 Y22.79420
X33.42640 Y22.79420
X33.42640 Y22.76880
X33.40100 Y22.76880
X33.40100 Y22.74340
X33.37560 Y22.74340
X33.37560 Y22.71800
X33.35020 Y22.71800
X33.35020 Y22.69260
X33.32480 Y22.69260
X33.32480 Y22.66720
X33.29940 Y22.66720
X33.29940 Y22.64180
X33.27400 Y22.64180
X33.27400 Y22.61640
X33.24860 Y22.61640
X33.24860 Y22.59100
X33.22320 Y22.59100
X33.22320 Y22.56560
X33.19780 Y22.56560
X33.19780 Y22.54020
X33.17240 Y22.54020
X33.17240 Y22.51480
X33.14700 Y22.51480
X33.14700 Y22.48940
X33.12160 Y22.48940
X33.12160 Y22.46400
X33.09620 Y22.46400
X33.09620 Y22.43860
X33.07080 Y22.43860
X33.07080 Y22.41320
X33.04540 Y22.41320
X33.04540 Y22.38780
X33.02000 Y22.38780
X33.02000 Y22.36240
X32.99460 Y22.36240
X32.99460 Y22.33700
X32.96920 Y22.33700
X32.96920 Y22.31160
X32.94380 Y22.31160
X32.94380 Y22.28620
X32.91840 Y22.28620
X32.91840 Y22.26080
X32.89300 Y22.26080
X32.89300 Y22.23540
X32.86760 Y22.23540
X32.86760 Y22.21000
X32.84220 Y22.21000
X32.84220 Y22.18460
X32.81680 Y22.18460
X32.81680 Y22.15920
X32.79140 Y22.15920
X32.79140 Y22.13380
X32.76600 Y22.13380
X32.76600 Y22.10840
X32.74060 Y22.10840
X32.74060 Y22.08300
X32.71520 Y22.08300
X32.71520 Y22.05760
X32.68980 Y22.05760
X32.68980 Y22.03220
X32.66440 Y22.03220
X32.66440 Y22.00680
X32.63900 Y22.00680
X32.63900 Y21.98140
X32.61360 Y21.98140
X32.61360 Y21.95600
X32.58820 Y21.95600
X32.58820 Y21.93060
X32.56280 Y21.93060
X32.56280 Y21.90520
X32.53740 Y21.90520
X32.53740 Y21.87980
X32.51200 Y21.87980
X32.51200 Y21.85440
X32.48660 Y21.85440
X32.48660 Y21.82900
X32.46120 Y21.82900
X32.46120 Y21.80360
X32.43580 Y21.80360
X32.43580 Y21.77820
X32.41040 Y21.77820
X32.41040 Y21.75280
X32.38500 Y21.75280
X32.38500 Y21.72740
X32.35960 Y21.72740
X32.35960 Y21.70200
X32.33420 Y21.70200
X32.33420 Y21.67660
X32.30880 Y21.67660
X32.30880 Y21.65120
X32.28340 Y21.65120
X32.28340 Y21.62580
X32.25800 Y21.62580
X32.25800 Y21.60040
X32.23260 Y21.60040
X32.23260 Y21.57500
X32.20720 Y21.57500
X32.20720 Y21.54960
X32.18180 Y21.54960
X32.18180 Y21.52420
X32.15640 Y21.52420
X32.15640 Y21.49880
X32.13100 Y21.49880
X32.13100 Y21.47340
X32.10560 Y21.47340
X32.10560 Y21.44800
X32.08020 Y21.44800
X32.08020 Y21.42260
X32.05480 Y21.42260
X32.05480 Y21.39720
X32.02940 Y21.39720
X32.02940 Y21.37180
X32.00400 Y21.37180
X32.00400 Y21.34640
X31.97860 Y21.34640
X31.97860 Y21.32100
X31.95320 Y21.32100
X31.95320 Y21.29560
X31.92780 Y21.29560
X31.92780 Y21.27020
X31.90240 Y21.27020
X31.90240 Y21.24480
X31.87700 Y21.24480
X31.87700 Y21.21940
X31.85160 Y21.21940
X31.85160 Y21.19400
X31.82620 Y21.19400
X31.82620 Y21.16860
X31.80080 Y21.16860
X31.80080 Y21.14320
X31.77540 Y21.14320
X31.77540 Y21.11780
X31.75000 Y21.11780
X31.75000 Y21.09240
X31.72460 Y21.09240
X31.72460 Y21.06700
X31.69920 Y21.06700
X31.69920 Y21.04160
X31.67380 Y21.04160
X31.67380 Y21.01620
X31.64840 Y21.01620
X31.64840 Y20.99080
X31.62300 Y20.99080
X31.62300 Y20.96540
X31.59760 Y20.96540
X31.59760 Y20.94000
X31.57220 Y20.94000
X31.57220 Y20.91460
X31.54680 Y20.91460
X31.54680 Y20.88920
X31.52140 Y20.88920
X31.52140 Y20.86380
X31.49600 Y20.86380
X31.49600 Y20.83840
X31.47060 Y20.83840
X31.47060 Y20.81300
X31.44520 Y20.81300
X31.44520 Y20.78760
X31.41980 Y20.78760
X31.41980 Y17.56180
X32.02940 Y17.56180
X32.02940 Y16.82520
X30.42920 Y16.82520
X30.42920 Y17.00300
X28.90520 Y17.00300
X28.90520 Y16.97760
X28.87980 Y16.97760
X28.87980 Y16.95220
X28.85440 Y16.95220
X28.85440 Y16.92680
X28.82900 Y16.92680
X28.82900 Y16.90140
X28.80360 Y16.90140
X28.80360 Y16.87600
X28.77820 Y16.87600
X28.77820 Y16.85060
X28.75280 Y16.85060
X28.75280 Y16.82520
X28.72740 Y16.82520
X28.72740 Y16.79980
X28.70200 Y16.79980
X28.70200 Y16.77440
X28.67660 Y16.77440
X28.67660 Y16.74900
X28.65120 Y16.74900
X28.65120 Y16.72360
X28.62580 Y16.72360
X28.62580 Y16.69820
X28.60040 Y16.69820
X28.60040 Y16.67280
X28.57500 Y16.67280
X28.57500 Y16.64740
X28.54960 Y16.64740
X28.54960 Y16.62200
X28.52420 Y16.62200
X28.52420 Y16.59660
X28.49880 Y16.59660
X28.49880 Y16.57120
X28.47340 Y16.57120
X28.47340 Y16.54580
X28.44800 Y16.54580
X28.44800 Y16.52040
X28.42260 Y16.52040
X28.42260 Y16.49500
X28.39720 Y16.49500
X28.39720 Y16.46960
X28.37180 Y16.46960
X28.37180 Y16.44420
X28.34640 Y16.44420
X28.34640 Y16.41880
X28.32100 Y16.41880
X28.32100 Y16.39340
X28.29560 Y16.39340
X28.29560 Y16.36800
X28.27020 Y16.36800
X28.27020 Y16.34260
X28.24480 Y16.34260
X28.24480 Y16.31720
X28.21940 Y16.31720
X28.21940 Y16.29180
X28.19400 Y16.29180
X28.19400 Y16.26640
X28.16860 Y16.26640
X28.16860 Y16.24100
X28.14320 Y16.24100
X28.14320 Y16.21560
X28.11780 Y16.21560
X28.11780 Y16.19020
X28.09240 Y16.19020
X28.09240 Y16.16480
X28.06700 Y16.16480
X28.06700 Y16.13940
X28.04160 Y16.13940
X28.04160 Y16.11400
X28.01620 Y16.11400
X28.01620 Y16.08860
X27.99080 Y16.08860
X27.99080 Y16.06320
X27.96540 Y16.06320
X27.96540 Y16.03780
X27.94000 Y16.03780
X27.94000 Y16.01240
X27.91460 Y16.01240
X27.91460 Y15.98700
X27.88920 Y15.98700
X27.88920 Y15.96160
X27.86380 Y15.96160
X27.86380 Y15.93620
X27.83840 Y15.93620
X27.83840 Y12.38020
X27.81300 Y12.38020
X27.81300 Y12.32940
X27.78760 Y12.32940
X27.78760 Y12.30400
X27.76220 Y12.30400
X27.76220 Y12.27860
X27.73680 Y12.27860
X27.73680 Y12.25320
X27.71140 Y12.25320
X27.71140 Y12.22780
X27.68600 Y12.22780
X27.68600 Y12.20240
X27.66060 Y12.20240
X27.66060 Y12.17700
X27.63520 Y12.17700
X27.63520 Y12.15160
X27.60980 Y12.15160
X27.60980 Y12.12620
X27.58440 Y12.12620
X27.58440 Y12.10080
X27.55900 Y12.10080
X27.55900 Y12.07540
X27.53360 Y12.07540
X27.53360 Y12.05000
X27.50820 Y12.05000
X27.50820 Y12.02460
X27.48280 Y12.02460
X27.48280 Y11.99920
X27.45740 Y11.99920
X27.45740 Y11.97380
X27.43200 Y11.97380
X27.43200 Y11.94840
X27.38120 Y11.94840
X27.38120 Y11.92300
X26.64460 Y11.92300
X26.64460 Y11.74520
X25.04440 Y11.74520
X25.04440 Y12.48180
X26.64460 Y12.48180
X26.64460 Y12.30400
X27.15260 Y12.30400
X27.15260 Y12.32940
X27.17800 Y12.32940
X27.17800 Y12.35480
X27.20340 Y12.35480
X27.20340 Y12.38020
X27.22880 Y12.38020
X27.22880 Y12.40560
X27.25420 Y12.40560
X27.25420 Y12.43100
X27.27960 Y12.43100
X27.27960 Y12.45640
X27.30500 Y12.45640
X27.30500 Y12.48180
X27.33040 Y12.48180
X27.33040 Y12.50720
X27.35580 Y12.50720
X27.35580 Y12.53260
X27.38120 Y12.53260
X27.38120 Y12.55800
X27.40660 Y12.55800
X27.40660 Y12.58340
X27.43200 Y12.58340
X27.43200 Y12.60880
X27.45740 Y12.60880
X27.45740 Y16.16480
X27.48280 Y16.16480
X27.48280 Y16.21560
X27.50820 Y16.21560
X27.50820 Y16.24100
X27.53360 Y16.24100
X27.53360 Y16.26640
X27.55900 Y16.26640
X27.55900 Y16.29180
X27.58440 Y16.29180
X27.58440 Y16.31720
X27.60980 Y16.31720
X27.60980 Y16.34260
X27.63520 Y16.34260
X27.63520 Y16.36800
X27.66060 Y16.36800
X27.66060 Y16.39340
X27.68600 Y16.39340
X27.68600 Y16.41880
X27.71140 Y16.41880
X27.71140 Y16.44420
X27.73680 Y16.44420
X27.73680 Y16.46960
X27.76220 Y16.46960
X27.76220 Y16.49500
X27.78760 Y16.49500
X27.78760 Y16.52040
X27.81300 Y16.52040
X27.81300 Y16.54580
X27.83840 Y16.54580
X27.83840 Y16.57120
X27.86380 Y16.57120
X27.86380 Y16.59660
X27.88920 Y16.59660
X27.88920 Y16.62200
X27.91460 Y16.62200
X27.91460 Y16.64740
X27.94000 Y16.64740
X27.94000 Y16.67280
X27.96540 Y16.67280
X27.96540 Y16.69820
X27.99080 Y16.69820
X27.99080 Y16.72360
X28.01620 Y16.72360
X28.01620 Y16.74900
X28.04160 Y16.74900
X28.04160 Y16.77440
X28.06700 Y16.77440
X28.06700 Y16.79980
X28.09240 Y16.79980
X28.09240 Y16.82520
X28.11780 Y16.82520
X28.11780 Y16.85060
X28.14320 Y16.85060
X28.14320 Y16.87600
X28.16860 Y16.87600
X28.16860 Y16.90140
X28.19400 Y16.90140
X28.19400 Y16.92680
X28.21940 Y16.92680
X28.21940 Y16.95220
X28.24480 Y16.95220
X28.24480 Y16.97760
X28.27020 Y16.97760
X28.27020 Y17.00300
X28.29560 Y17.00300
X28.29560 Y17.02840
X28.32100 Y17.02840
X28.32100 Y17.05380
X28.34640 Y17.05380
X28.34640 Y17.07920
X28.37180 Y17.07920
X28.37180 Y17.10460
X28.39720 Y17.10460
X28.39720 Y17.13000
X28.42260 Y17.13000
X28.42260 Y17.15540
X28.44800 Y17.15540
X28.44800 Y17.18080
X28.47340 Y17.18080
X28.47340 Y17.20620
X28.49880 Y17.20620
X28.49880 Y17.23160
X28.52420 Y17.23160
X28.52420 Y17.25700
X28.54960 Y17.25700
X28.54960 Y17.28240
X28.57500 Y17.28240
X28.57500 Y17.30780
X28.60040 Y17.30780
X28.60040 Y17.33320
X28.62580 Y17.33320
X28.62580 Y17.35860
X28.67660 Y17.35860
X28.67660 Y17.38400
X30.42920 Y17.38400
X30.42920 Y17.56180
X30.53080 Y17.56180
X30.53080 Y17.58720
X30.50540 Y17.58720
X30.50540 Y17.61260
X30.48000 Y17.61260
X30.48000 Y17.63800
X30.45460 Y17.63800
X30.45460 Y17.66340
X30.42920 Y17.66340
X30.42920 Y17.68880
X30.40380 Y17.68880
X30.40380 Y17.71420
X30.37840 Y17.71420
X30.37840 Y17.73960
X30.35300 Y17.73960
X30.35300 Y17.76500
X30.32760 Y17.76500
X30.32760 Y17.79040
X30.30220 Y17.79040
X30.30220 Y17.81580
X30.27680 Y17.81580
X30.27680 Y17.84120
X30.25140 Y17.84120
X30.25140 Y17.86660
X30.22600 Y17.86660
X30.22600 Y17.89200
X30.20060 Y17.89200
X30.20060 Y17.91740
X30.17520 Y17.91740
X30.17520 Y17.94280
X30.14980 Y17.94280
X30.14980 Y17.96820
X30.12440 Y17.96820
X30.12440 Y17.99360
X30.09900 Y17.99360
X30.09900 Y18.01900
X30.07360 Y18.01900
X30.07360 Y18.04440
X30.04820 Y18.04440
X30.04820 Y18.06980
X30.02280 Y18.06980
X30.02280 Y18.09520
X29.99740 Y18.09520
X29.99740 Y18.12060
X29.97200 Y18.12060
X29.97200 Y18.14600
X29.94660 Y18.14600
X29.94660 Y18.17140
X29.92120 Y18.17140
X29.92120 Y18.19680
X29.89580 Y18.19680
X29.89580 Y18.22220
X29.87040 Y18.22220
X29.87040 Y18.24760
X29.84500 Y18.24760
X29.84500 Y18.27300
X29.81960 Y18.27300
X29.81960 Y18.29840
X29.79420 Y18.29840
X29.79420 Y18.32380
X29.76880 Y18.32380
X29.76880 Y18.34920
X29.74340 Y18.34920
X29.74340 Y18.37460
X29.71800 Y18.37460
X29.71800 Y18.40000
X29.69260 Y18.40000
X29.69260 Y18.42540
X29.66720 Y18.42540
X29.66720 Y18.45080
X29.64180 Y18.45080
X29.64180 Y18.47620
X29.61640 Y18.47620
X29.61640 Y18.50160
X29.59100 Y18.50160
X29.59100 Y18.52700
X29.56560 Y18.52700
X29.56560 Y18.55240
X29.54020 Y18.55240
X29.54020 Y18.57780
X29.51480 Y18.57780
X29.51480 Y18.60320
X29.48940 Y18.60320
X29.48940 Y18.62860
X29.46400 Y18.62860
X29.46400 Y18.65400
X20.65020 Y18.65400
X20.65020 Y18.62860
X20.62480 Y18.62860
X20.62480 Y18.60320
X20.59940 Y18.60320
X20.59940 Y18.57780
X20.57400 Y18.57780
X20.57400 Y18.55240
X20.54860 Y18.55240
X20.54860 Y18.52700
X20.52320 Y18.52700
X20.52320 Y18.50160
X20.49780 Y18.50160
X20.49780 Y18.47620
X20.47240 Y18.47620
X20.47240 Y18.45080
X20.44700 Y18.45080
X20.44700 Y18.42540
X20.42160 Y18.42540
X20.42160 Y18.40000
X20.39620 Y18.40000
X20.39620 Y18.37460
X20.37080 Y18.37460
X20.37080 Y18.34920
X20.34540 Y18.34920
X20.34540 Y18.32380
X20.32000 Y18.32380
X20.32000 Y18.29840
X20.29460 Y18.29840
X20.29460 Y18.27300
X20.26920 Y18.27300
X20.26920 Y18.24760
X20.24380 Y18.24760
X20.24380 Y18.22220
X20.21840 Y18.22220
X20.21840 Y18.19680
X20.19300 Y18.19680
X20.19300 Y18.17140
X20.16760 Y18.17140
X20.16760 Y18.14600
X20.14220 Y18.14600
X20.14220 Y18.12060
X20.11680 Y18.12060
X20.11680 Y18.09520
X20.09140 Y18.09520
X20.09140 Y18.06980
X20.06600 Y18.06980
X20.06600 Y18.04440
X20.04060 Y18.04440
X20.04060 Y18.01900
X20.01520 Y18.01900
X20.01520 Y17.99360
X19.98980 Y17.99360
X19.98980 Y17.96820
X19.96440 Y17.96820
X19.96440 Y17.94280
X19.93900 Y17.94280
X19.93900 Y17.91740
X19.91360 Y17.91740
X19.91360 Y17.89200
X19.88820 Y17.89200
X19.88820 Y17.86660
X19.86280 Y17.86660
X19.86280 Y17.84120
X19.83740 Y17.84120
X19.83740 Y17.81580
X19.81200 Y17.81580
X19.81200 Y17.79040
X19.78660 Y17.79040
X19.78660 Y17.76500
X19.76120 Y17.76500
X19.76120 Y17.73960
X19.73580 Y17.73960
X19.73580 Y17.71420
X19.71040 Y17.71420
X19.71040 Y14.15820
X19.68500 Y14.15820
X19.68500 Y14.10740
X19.65960 Y14.10740
X19.65960 Y14.08200
X19.63420 Y14.08200
X19.63420 Y14.05660
X19.60880 Y14.05660
X19.60880 Y14.03120
X19.58340 Y14.03120
X19.58340 Y14.00580
X19.55800 Y14.00580
X19.55800 Y13.98040
X19.53260 Y13.98040
X19.53260 Y13.95500
X19.50720 Y13.95500
X19.50720 Y13.92960
X19.48180 Y13.92960
X19.48180 Y13.90420
X19.45640 Y13.90420
X19.45640 Y13.87880
X19.43100 Y13.87880
X19.43100 Y13.85340
X19.40560 Y13.85340
X19.40560 Y13.82800
X19.38020 Y13.82800
X19.38020 Y13.80260
X19.35480 Y13.80260
X19.35480 Y13.77720
X19.32940 Y13.77720
X19.32940 Y13.75180
X19.30400 Y13.75180
X19.30400 Y13.72640
X19.27860 Y13.72640
X19.27860 Y13.70100
X19.25320 Y13.70100
X19.25320 Y13.67560
X19.22780 Y13.67560
X19.22780 Y13.65020
X19.20240 Y13.65020
X19.20240 Y13.62480
X19.17700 Y13.62480
X19.17700 Y13.59940
X19.15160 Y13.59940
X19.15160 Y13.57400
X19.12620 Y13.57400
X19.12620 Y13.54860
X19.10080 Y13.54860
X19.10080 Y13.52320
X19.07540 Y13.52320
X19.07540 Y13.49780
X19.05000 Y13.49780
X19.05000 Y13.47240
X19.02460 Y13.47240
X19.02460 Y13.44700
X18.99920 Y13.44700
X18.99920 Y13.42160
X18.97380 Y13.42160
X18.97380 Y13.39620
X18.94840 Y13.39620
X18.94840 Y13.37080
X18.92300 Y13.37080
X18.92300 Y13.34540
X18.89760 Y13.34540
X18.89760 Y13.32000
X18.87220 Y13.32000
X18.87220 Y13.29460
X18.84680 Y13.29460
X18.84680 Y13.26920
X18.82140 Y13.26920
X18.82140 Y13.24380
X18.79600 Y13.24380
X18.79600 Y13.21840
X18.77060 Y13.21840
X18.77060 Y13.19300
X18.74520 Y13.19300
X18.74520 Y13.16760
X18.71980 Y13.16760
X18.71980 Y13.14220
X18.69440 Y13.14220
X18.69440 Y13.11680
X18.66900 Y13.11680
X18.66900 Y13.09140
X18.64360 Y13.09140
X18.64360 Y13.06600
X18.61820 Y13.06600
X18.61820 Y13.04060
X18.59280 Y13.04060
X18.59280 Y13.01520
X18.56740 Y13.01520
X18.56740 Y12.98980
X18.54200 Y12.98980
X18.54200 Y12.96440
X18.51660 Y12.96440
X18.51660 Y12.93900
X18.49120 Y12.93900
X18.49120 Y12.91360
X18.46580 Y12.91360
X18.46580 Y12.88820
X18.44040 Y12.88820
X18.44040 Y12.86280
X18.41500 Y12.86280
X18.41500 Y12.83740
X18.38960 Y12.83740
X18.38960 Y12.81200
X18.36420 Y12.81200
X18.36420 Y12.78660
X18.33880 Y12.78660
X18.33880 Y12.76120
X18.31340 Y12.76120
X18.31340 Y12.73580
X18.28800 Y12.73580
X18.28800 Y12.71040
X18.26260 Y12.71040
X18.26260 Y12.68500
X18.23720 Y12.68500
X18.23720 Y12.65960
X18.21180 Y12.65960
X18.21180 Y12.63420
X18.18640 Y12.63420
X18.18640 Y12.60880
X18.16100 Y12.60880
X18.16100 Y12.58340
X18.13560 Y12.58340
X18.13560 Y12.55800
X18.11020 Y12.55800
X18.11020 Y12.53260
X18.08480 Y12.53260
X18.08480 Y12.50720
X18.05940 Y12.50720
X18.05940 Y12.48180
X18.03400 Y12.48180
X18.03400 Y12.45640
X18.00860 Y12.45640
X18.00860 Y12.43100
X17.98320 Y12.43100
X17.98320 Y12.40560
X17.95780 Y12.40560
X17.95780 Y12.38020
X17.93240 Y12.38020
X17.93240 Y12.35480
X17.90700 Y12.35480
X17.90700 Y12.32940
X17.88160 Y12.32940
X17.88160 Y12.30400
X17.85620 Y12.30400
X17.85620 Y12.27860
X17.83080 Y12.27860
X17.83080 Y12.25320
X17.80540 Y12.25320
X17.80540 Y12.22780
X17.78000 Y12.22780
X17.78000 Y12.20240
X17.75460 Y12.20240
X17.75460 Y12.17700
X17.72920 Y12.17700
X17.72920 Y12.15160
X17.70380 Y12.15160
X17.70380 Y12.12620
X17.67840 Y12.12620
X17.67840 Y12.10080
X17.65300 Y12.10080
X17.65300 Y12.07540
X17.62760 Y12.07540
X17.62760 Y12.05000
X17.60220 Y12.05000
X17.60220 Y12.02460
X17.57680 Y12.02460
X17.57680 Y11.99920
X17.55140 Y11.99920
X17.55140 Y11.97380
X17.52600 Y11.97380
X17.52600 Y11.94840
X17.47520 Y11.94840
X17.47520 Y11.92300
X16.89100 Y11.92300
X16.89100 Y11.71980
X15.08760 Y11.71980
X15.08760 Y11.94840
X15.03680 Y11.94840
X15.03680 Y11.97380
X15.01140 Y11.97380
X15.01140 Y11.99920
X14.98600 Y11.99920
X14.98600 Y12.02460
X14.96060 Y12.02460
X14.96060 Y12.05000
X14.93520 Y12.05000
X14.93520 Y12.07540
X14.90980 Y12.07540
X14.90980 Y12.10080
X14.88440 Y12.10080
X14.88440 Y12.12620
X14.85900 Y12.12620
X14.85900 Y12.15160
X14.83360 Y12.15160
X14.83360 Y12.17700
X14.80820 Y12.17700
X14.80820 Y12.20240
X14.78280 Y12.20240
X14.78280 Y12.22780
X14.75740 Y12.22780
X14.75740 Y12.25320
X14.73200 Y12.25320
X14.73200 Y12.27860
X14.70660 Y12.27860
X14.70660 Y12.30400
X14.68120 Y12.30400
X14.68120 Y12.32940
X14.65580 Y12.32940
X14.65580 Y12.35480
X14.63040 Y12.35480
X14.63040 Y12.38020
X14.60500 Y12.38020
X14.60500 Y12.40560
X14.57960 Y12.40560
X14.57960 Y12.43100
X14.55420 Y12.43100
X14.55420 Y12.45640
X14.52880 Y12.45640
X14.52880 Y12.48180
X14.50340 Y12.48180
X14.50340 Y12.50720
X14.47800 Y12.50720
X14.47800 Y12.53260
X14.45260 Y12.53260
X14.45260 Y12.55800
X14.42720 Y12.55800
X14.42720 Y12.58340
X14.40180 Y12.58340
X14.40180 Y12.60880
X14.37640 Y12.60880
X14.37640 Y12.63420
X14.35100 Y12.63420
X14.35100 Y12.65960
X14.32560 Y12.65960
X14.32560 Y12.68500
X14.30020 Y12.68500
X14.30020 Y12.71040
X14.27480 Y12.71040
X14.27480 Y12.73580
X14.24940 Y12.73580
X14.24940 Y12.76120
X14.22400 Y12.76120
X14.22400 Y12.78660
X14.19860 Y12.78660
X14.19860 Y12.81200
X14.17320 Y12.81200
X14.17320 Y12.83740
X14.14780 Y12.83740
X14.14780 Y12.86280
X14.12240 Y12.86280
X14.12240 Y12.88820
X14.09700 Y12.88820
X14.09700 Y12.91360
X14.07160 Y12.91360
X14.07160 Y12.93900
X14.04620 Y12.93900
X14.04620 Y12.96440
X14.02080 Y12.96440
X14.02080 Y12.98980
X13.99540 Y12.98980
X13.99540 Y13.01520
X13.97000 Y13.01520
X13.97000 Y13.04060
X13.94460 Y13.04060
X13.94460 Y13.06600
X13.91920 Y13.06600
X13.91920 Y13.09140
X13.89380 Y13.09140
X13.89380 Y13.11680
X13.86840 Y13.11680
X13.86840 Y13.14220
X13.84300 Y13.14220
X13.84300 Y13.16760
X13.81760 Y13.16760
X13.81760 Y13.19300
X13.79220 Y13.19300
X13.79220 Y13.21840
X13.76680 Y13.21840
X13.76680 Y13.24380
X13.74140 Y13.24380
X13.74140 Y13.26920
X13.71600 Y13.26920
X13.71600 Y13.29460
X13.69060 Y13.29460
X13.69060 Y13.32000
X13.66520 Y13.32000
X13.66520 Y13.34540
X13.63980 Y13.34540
X13.63980 Y13.37080
X13.61440 Y13.37080
X13.61440 Y13.39620
X13.58900 Y13.39620
X13.58900 Y13.39620
X13.56360 Y13.39620
X13.56360 Y13.37080
X13.53820 Y13.37080
X13.53820 Y13.32000
X13.51280 Y13.32000
X13.51280 Y13.26920
X13.48740 Y13.26920
X13.48740 Y13.24380
X13.46200 Y13.24380
X13.46200 Y13.21840
X13.43660 Y13.21840
X13.43660 Y13.19300
X13.41120 Y13.19300
X13.41120 Y13.16760
X13.38580 Y13.16760
X13.38580 Y13.14220
X13.33500 Y13.14220
X13.33500 Y13.11680
X13.30960 Y13.11680
X13.30960 Y13.09140
X13.25880 Y13.09140
X13.25880 Y13.06600
X13.20800 Y13.06600
X13.20800 Y13.04060
X13.18260 Y13.04060
X13.18260 Y13.01520
X13.10640 Y13.01520
X13.10640 Y12.98980
X13.00480 Y12.98980
X13.00480 Y12.96440
X12.85240 Y12.96440
X12.85240 Y12.93900
X12.47140 Y12.93900
X12.47140 Y12.96440
X12.31900 Y12.96440
X12.31900 Y12.98980
X12.21740 Y12.98980
X12.21740 Y13.01520
X12.14120 Y13.01520
X12.14120 Y13.04060
X12.11580 Y13.04060
X12.11580 Y13.06600
X12.06500 Y13.06600
X12.06500 Y13.09140
X12.01420 Y13.09140
X12.01420 Y13.11680
X11.96340 Y13.11680
X11.96340 Y13.14220
X11.93800 Y13.14220
X11.93800 Y13.16760
X11.91260 Y13.16760
X11.91260 Y13.19300
X11.88720 Y13.19300
X11.88720 Y13.21840
X11.86180 Y13.21840
X11.86180 Y13.24380
X11.83640 Y13.24380
X11.83640 Y13.26920
X11.81100 Y13.26920
X11.81100 Y13.32000
X11.78560 Y13.32000
X11.78560 Y13.37080
X11.76020 Y13.37080
X11.76020 Y13.39620
X11.73480 Y13.39620
X11.73480 Y13.44700
X11.70940 Y13.44700
X11.70940 Y13.49780
X11.68400 Y13.49780
X11.68400 Y13.54860
X11.65860 Y13.54860
X11.65860 Y13.57400
X11.63320 Y13.57400
X11.63320 Y13.65020
X9.88060 Y13.65020
X9.88060 Y13.57400
X9.85520 Y13.57400
X9.85520 Y13.54860
X9.82980 Y13.54860
X9.82980 Y13.49780
X9.80440 Y13.49780
X9.80440 Y13.44700
X9.77900 Y13.44700
X9.77900 Y13.39620
X9.75360 Y13.39620
X9.75360 Y13.37080
X9.72820 Y13.37080
X9.72820 Y13.32000
X9.70280 Y13.32000
X9.70280 Y13.26920
X9.67740 Y13.26920
X9.67740 Y13.24380
X9.65200 Y13.24380
X9.65200 Y13.21840
X9.62660 Y13.21840
X9.62660 Y13.19300
X9.60120 Y13.19300
X9.60120 Y13.16760
X9.57580 Y13.16760
X9.57580 Y13.14220
X9.52500 Y13.14220
X9.52500 Y13.11680
X9.49960 Y13.11680
X9.49960 Y13.09140
X9.44880 Y13.09140
X9.44880 Y13.06600
X9.39800 Y13.06600
X9.39800 Y13.04060
X9.37260 Y13.04060
X9.37260 Y13.01520
X9.29640 Y13.01520
X9.29640 Y12.98980
X9.19480 Y12.98980
X9.19480 Y12.96440
X9.04240 Y12.96440
X9.04240 Y12.93900
X8.66140 Y12.93900
X8.66140 Y12.96440
X8.50900 Y12.96440
X8.50900 Y12.98980
X8.40740 Y12.98980
X8.40740 Y13.01520
X8.33120 Y13.01520
X8.33120 Y13.04060
X8.30580 Y13.04060
X8.30580 Y13.06600
X8.25500 Y13.06600
X8.25500 Y13.09140
X8.20420 Y13.09140
X8.20420 Y13.11680
X8.15340 Y13.11680
X8.15340 Y13.14220
X8.12800 Y13.14220
X8.12800 Y13.16760
X8.10260 Y13.16760
X8.10260 Y13.19300
X8.07720 Y13.19300
X8.07720 Y13.21840
X8.05180 Y13.21840
X8.05180 Y13.24380
X8.02640 Y13.24380
X8.02640 Y13.26920
X8.00100 Y13.26920
X8.00100 Y13.32000
X7.97560 Y13.32000
X7.97560 Y13.37080
X7.95020 Y13.37080
X7.95020 Y13.39620
X7.92480 Y13.39620
X7.92480 Y13.44700
X7.89940 Y13.44700
X7.89940 Y13.49780
X7.87400 Y13.49780
X7.87400 Y13.54860
X7.84860 Y13.54860
X7.84860 Y13.57400
X7.82320 Y13.57400
X7.82320 Y13.72640
X7.79780 Y13.72640
X7.79780 Y13.82800
X6.73100 Y13.82800
X6.73100 Y13.29460
X5.53720 Y13.29460
X5.53720 Y14.08200
X6.22300 Y14.08200
X6.22300 Y14.10740
X6.24840 Y14.10740
X6.24840 Y14.13280
X6.27380 Y14.13280
X6.27380 Y14.15820
X6.29920 Y14.15820
X6.29920 Y14.18360
X6.35000 Y14.18360
X6.35000 Y14.20900
X7.79780 Y14.20900
X7.79780 Y14.31060
X7.82320 Y14.31060
X7.82320 Y14.46300
X7.84860 Y14.46300
X7.84860 Y14.48840
X7.87400 Y14.48840
X7.87400 Y14.53920
X7.89940 Y14.53920
X7.89940 Y14.59000
X7.92480 Y14.59000
X7.92480 Y14.64080
X7.95020 Y14.64080
X7.95020 Y14.66620
X7.97560 Y14.66620
X7.97560 Y14.71700
X8.00100 Y14.71700
X8.00100 Y14.76780
X8.02640 Y14.76780
X8.02640 Y14.79320
X8.05180 Y14.79320
X8.05180 Y14.81860
X8.07720 Y14.81860
X8.07720 Y14.84400
X8.10260 Y14.84400
X8.10260 Y14.86940
X8.12800 Y14.86940
X8.12800 Y14.89480
X8.15340 Y14.89480
X8.15340 Y14.92020
X8.20420 Y14.92020
X8.20420 Y14.94560
X8.25500 Y14.94560
X8.25500 Y14.97100
X8.30580 Y14.97100
X8.30580 Y14.99640
X8.33120 Y14.99640
X8.33120 Y15.02180
X8.43280 Y15.02180
X8.43280 Y15.04720
X8.50900 Y15.04720
X8.50900 Y15.07260
X8.66140 Y15.07260
X8.66140 Y15.09800
X9.04240 Y15.09800
X9.04240 Y15.07260
X9.19480 Y15.07260
X9.19480 Y15.04720
X9.27100 Y15.04720
X9.27100 Y15.02180
X9.37260 Y15.02180
X9.37260 Y14.99640
X9.39800 Y14.99640
X9.39800 Y14.97100
X9.44880 Y14.97100
X9.44880 Y14.94560
X9.49960 Y14.94560
X9.49960 Y14.92020
X9.52500 Y14.92020
X9.52500 Y14.89480
X9.57580 Y14.89480
X9.57580 Y14.86940
X9.60120 Y14.86940
X9.60120 Y14.84400
X9.62660 Y14.84400
X9.62660 Y14.81860
X9.65200 Y14.81860
X9.65200 Y14.79320
X9.67740 Y14.79320
X9.67740 Y14.76780
X9.70280 Y14.76780
X9.70280 Y14.71700
X9.72820 Y14.71700
X9.72820 Y14.66620
X9.75360 Y14.66620
X9.75360 Y14.61540
X9.77900 Y14.61540
X9.77900 Y14.59000
X9.80440 Y14.59000
X9.80440 Y14.53920
X9.82980 Y14.53920
X9.82980 Y14.48840
X9.85520 Y14.48840
X9.85520 Y14.46300
X9.88060 Y14.46300
X9.88060 Y14.38680
X11.63320 Y14.38680
X11.63320 Y14.46300
X11.65860 Y14.46300
X11.65860 Y14.48840
X11.68400 Y14.48840
X11.68400 Y14.53920
X11.70940 Y14.53920
X11.70940 Y14.59000
X11.73480 Y14.59000
X11.73480 Y14.64080
X11.76020 Y14.64080
X11.76020 Y14.66620
X11.78560 Y14.66620
X11.78560 Y14.71700
X11.81100 Y14.71700
X11.81100 Y14.76780
X11.83640 Y14.76780
X11.83640 Y14.79320
X11.86180 Y14.79320
X11.86180 Y14.81860
X11.88720 Y14.81860
X11.88720 Y14.84400
X11.91260 Y14.84400
X11.91260 Y14.86940
X11.93800 Y14.86940
X11.93800 Y14.89480
X11.96340 Y14.89480
X11.96340 Y14.92020
X12.01420 Y14.92020
X12.01420 Y14.94560
X12.06500 Y14.94560
X12.06500 Y14.97100
X12.11580 Y14.97100
X12.11580 Y14.99640
X12.14120 Y14.99640
X12.14120 Y15.02180
X12.24280 Y15.02180
X12.24280 Y15.04720
X12.31900 Y15.04720
X12.31900 Y15.07260
X12.47140 Y15.07260
X12.47140 Y15.09800
X12.85240 Y15.09800
X12.85240 Y15.07260
X13.00480 Y15.07260
X13.00480 Y15.04720
X13.08100 Y15.04720
X13.08100 Y15.02180
X13.18260 Y15.02180
X13.18260 Y14.99640
X13.20800 Y14.99640
X13.20800 Y14.97100
X13.25880 Y14.97100
X13.25880 Y14.94560
X13.30960 Y14.94560
X13.30960 Y14.92020
X13.33500 Y14.92020
X13.33500 Y14.89480
X13.38580 Y14.89480
X13.38580 Y14.86940
X13.41120 Y14.86940
X13.41120 Y14.84400
X13.43660 Y14.84400
X13.43660 Y14.81860
X13.46200 Y14.81860
X13.46200 Y14.79320
X13.48740 Y14.79320
X13.48740 Y14.76780
X13.51280 Y14.76780
X13.51280 Y14.71700
X13.53820 Y14.71700
X13.53820 Y14.66620
X13.56360 Y14.66620
X13.56360 Y14.61540
X13.58900 Y14.61540
X13.58900 Y14.59000
X13.61440 Y14.59000
X13.61440 Y14.53920
X13.63980 Y14.53920
X13.63980 Y14.48840
X13.66520 Y14.48840
X13.66520 Y14.46300
X13.69060 Y14.46300
X13.69060 Y14.31060
X13.71600 Y14.31060
X13.71600 Y14.15820
X13.74140 Y14.15820
X13.74140 Y13.87880
X13.76680 Y13.87880
X13.76680 Y13.85340
X13.79220 Y13.85340
X13.79220 Y13.82800
X13.81760 Y13.82800
X13.81760 Y13.80260
X13.84300 Y13.80260
X13.84300 Y13.77720
X13.86840 Y13.77720
X13.86840 Y13.75180
X13.89380 Y13.75180
X13.89380 Y13.72640
X13.91920 Y13.72640
X13.91920 Y13.70100
X13.94460 Y13.70100
X13.94460 Y13.67560
X13.97000 Y13.67560
X13.97000 Y13.65020
X13.99540 Y13.65020
X13.99540 Y13.62480
X14.02080 Y13.62480
X14.02080 Y13.59940
X14.04620 Y13.59940
X14.04620 Y13.57400
X14.07160 Y13.57400
X14.07160 Y13.54860
X14.09700 Y13.54860
X14.09700 Y13.52320
X14.12240 Y13.52320
X14.12240 Y13.49780
X14.14780 Y13.49780
X14.14780 Y13.47240
X14.17320 Y13.47240
X14.17320 Y13.44700
X14.19860 Y13.44700
X14.19860 Y13.42160
X14.22400 Y13.42160
X14.22400 Y13.39620
X14.24940 Y13.39620
X14.24940 Y13.37080
X14.27480 Y13.37080
X14.27480 Y13.34540
X14.30020 Y13.34540
X14.30020 Y13.32000
X14.32560 Y13.32000
X14.32560 Y13.29460
X14.35100 Y13.29460
X14.35100 Y13.26920
X14.37640 Y13.26920
X14.37640 Y13.24380
X14.40180 Y13.24380
X14.40180 Y13.21840
X14.42720 Y13.21840
X14.42720 Y13.19300
X14.45260 Y13.19300
X14.45260 Y13.16760
X14.47800 Y13.16760
X14.47800 Y13.14220
X14.50340 Y13.14220
X14.50340 Y13.11680
X14.52880 Y13.11680
X14.52880 Y13.09140
X14.55420 Y13.09140
X14.55420 Y13.06600
X14.57960 Y13.06600
X14.57960 Y13.04060
X14.60500 Y13.04060
X14.60500 Y13.01520
X14.63040 Y13.01520
X14.63040 Y12.98980
X14.65580 Y12.98980
X14.65580 Y12.96440
X14.68120 Y12.96440
X14.68120 Y12.93900
X14.70660 Y12.93900
X14.70660 Y12.91360
X14.73200 Y12.91360
X14.73200 Y12.88820
X14.75740 Y12.88820
X14.75740 Y12.86280
X14.78280 Y12.86280
X14.78280 Y12.83740
X14.80820 Y12.83740
X14.80820 Y12.81200
X14.83360 Y12.81200
X14.83360 Y12.78660
X14.85900 Y12.78660
X14.85900 Y12.76120
X14.88440 Y12.76120
X14.88440 Y12.73580
X14.90980 Y12.73580
X14.90980 Y12.71040
X14.93520 Y12.71040
X14.93520 Y12.68500
X14.96060 Y12.68500
X14.96060 Y12.65960
X14.98600 Y12.65960
X14.98600 Y12.63420
X15.01140 Y12.63420
X15.01140 Y12.60880
X15.03680 Y12.60880
X15.03680 Y12.58340
X15.06220 Y12.58340
X15.06220 Y12.55800
X15.08760 Y12.55800
X15.08760 Y12.53260
X15.11300 Y12.53260
X15.11300 Y12.50720
X16.89100 Y12.50720
X16.89100 Y12.30400
X17.24660 Y12.30400
X17.24660 Y12.32940
X17.27200 Y12.32940
X17.27200 Y12.35480
X17.29740 Y12.35480
X17.29740 Y12.38020
X17.32280 Y12.38020
X17.32280 Y12.40560
X17.34820 Y12.40560
X17.34820 Y12.43100
X17.37360 Y12.43100
X17.37360 Y12.45640
X17.39900 Y12.45640
X17.39900 Y12.48180
X17.42440 Y12.48180
X17.42440 Y12.50720
X17.44980 Y12.50720
X17.44980 Y12.53260
X17.47520 Y12.53260
X17.47520 Y12.55800
X17.50060 Y12.55800
X17.50060 Y12.58340
X17.52600 Y12.58340
X17.52600 Y12.60880
X17.55140 Y12.60880
X17.55140 Y12.63420
X17.57680 Y12.63420
X17.57680 Y12.65960
X17.60220 Y12.65960
X17.60220 Y12.68500
X17.62760 Y12.68500
X17.62760 Y12.71040
X17.65300 Y12.71040
X17.65300 Y12.73580
X17.67840 Y12.73580
X17.67840 Y12.76120
X17.70380 Y12.76120
X17.70380 Y12.78660
X17.72920 Y12.78660
X17.72920 Y12.81200
X17.75460 Y12.81200
X17.75460 Y12.83740
X17.78000 Y12.83740
X17.78000 Y12.86280
X17.80540 Y12.86280
X17.80540 Y12.88820
X17.83080 Y12.88820
X17.83080 Y12.91360
X17.85620 Y12.91360
X17.85620 Y12.93900
X17.88160 Y12.93900
X17.88160 Y12.96440
X17.90700 Y12.96440
X17.90700 Y12.98980
X17.93240 Y12.98980
X17.93240 Y13.01520
X17.95780 Y13.01520
X17.95780 Y13.04060
X17.98320 Y13.04060
X17.98320 Y13.06600
X18.00860 Y13.06600
X18.00860 Y13.09140
X18.03400 Y13.09140
X18.03400 Y13.11680
X18.05940 Y13.11680
X18.05940 Y13.14220
X18.08480 Y13.14220
X18.08480 Y13.16760
X18.11020 Y13.16760
X18.11020 Y13.19300
X18.13560 Y13.19300
X18.13560 Y13.21840
X18.16100 Y13.21840
X18.16100 Y13.24380
X18.18640 Y13.24380
X18.18640 Y13.26920
X18.21180 Y13.26920
X18.21180 Y13.29460
X18.23720 Y13.29460
X18.23720 Y13.32000
X18.26260 Y13.32000
X18.26260 Y13.34540
X18.28800 Y13.34540
X18.28800 Y13.37080
X18.31340 Y13.37080
X18.31340 Y13.39620
X18.33880 Y13.39620
X18.33880 Y13.42160
X18.36420 Y13.42160
X18.36420 Y13.44700
X18.38960 Y13.44700
X18.38960 Y13.47240
X18.41500 Y13.47240
X18.41500 Y13.49780
X18.44040 Y13.49780
X18.44040 Y13.52320
X18.46580 Y13.52320
X18.46580 Y13.54860
X18.49120 Y13.54860
X18.49120 Y13.57400
X18.51660 Y13.57400
X18.51660 Y13.59940
X18.54200 Y13.59940
X18.54200 Y13.62480
X18.56740 Y13.62480
X18.56740 Y13.65020
X18.59280 Y13.65020
X18.59280 Y13.67560
X18.61820 Y13.67560
X18.61820 Y13.70100
X18.64360 Y13.70100
X18.64360 Y13.72640
X18.66900 Y13.72640
X18.66900 Y13.75180
X18.69440 Y13.75180
X18.69440 Y13.77720
X18.71980 Y13.77720
X18.71980 Y13.80260
X18.74520 Y13.80260
X18.74520 Y13.82800
X18.77060 Y13.82800
X18.77060 Y13.85340
X18.79600 Y13.85340
X18.79600 Y13.87880
X18.82140 Y13.87880
X18.82140 Y13.90420
X18.84680 Y13.90420
X18.84680 Y13.92960
X18.87220 Y13.92960
X18.87220 Y13.95500
X18.89760 Y13.95500
X18.89760 Y13.98040
X18.92300 Y13.98040
X18.92300 Y14.00580
X18.94840 Y14.00580
X18.94840 Y14.03120
X18.97380 Y14.03120
X18.97380 Y14.05660
X18.99920 Y14.05660
X18.99920 Y14.08200
X19.02460 Y14.08200
X19.02460 Y14.10740
X19.05000 Y14.10740
X19.05000 Y14.13280
X19.07540 Y14.13280
X19.07540 Y14.15820
X19.10080 Y14.15820
X19.10080 Y14.18360
X19.12620 Y14.18360
X19.12620 Y14.20900
X19.15160 Y14.20900
X19.15160 Y14.23440
X19.17700 Y14.23440
X19.17700 Y14.25980
X19.20240 Y14.25980
X19.20240 Y14.28520
X19.22780 Y14.28520
X19.22780 Y14.31060
X19.25320 Y14.31060
X19.25320 Y14.33600
X19.27860 Y14.33600
X19.27860 Y14.36140
X19.30400 Y14.36140
X19.30400 Y14.38680
X19.32940 Y14.38680
X19.32940 Y17.94280
X19.35480 Y17.94280
X19.35480 Y17.99360
X19.38020 Y17.99360
X19.38020 Y18.01900
X19.40560 Y18.01900
X19.40560 Y18.04440
X19.43100 Y18.04440
X19.43100 Y18.06980
X19.45640 Y18.06980
X19.45640 Y18.09520
X19.48180 Y18.09520
X19.48180 Y18.12060
X19.50720 Y18.12060
X19.50720 Y18.14600
X19.53260 Y18.14600
X19.53260 Y18.17140
X19.55800 Y18.17140
X19.55800 Y18.19680
X19.58340 Y18.19680
X19.58340 Y18.22220
X19.60880 Y18.22220
X19.60880 Y18.24760
X19.63420 Y18.24760
X19.63420 Y18.27300
X19.65960 Y18.27300
X19.65960 Y18.29840
X19.68500 Y18.29840
X19.68500 Y18.32380
X19.71040 Y18.32380
X19.71040 Y18.34920
X19.73580 Y18.34920
X19.73580 Y18.37460
X19.76120 Y18.37460
X19.76120 Y18.40000
X19.78660 Y18.40000
X19.78660 Y18.42540
X19.81200 Y18.42540
X19.81200 Y18.45080
X19.83740 Y18.45080
X19.83740 Y18.47620
X19.86280 Y18.47620
X19.86280 Y18.50160
X19.88820 Y18.50160
X19.88820 Y18.52700
X19.91360 Y18.52700
X19.91360 Y18.55240
X19.93900 Y18.55240
X19.93900 Y18.57780
X19.96440 Y18.57780
X19.96440 Y18.60320
X19.98980 Y18.60320
X19.98980 Y18.62860
X20.01520 Y18.62860
X20.01520 Y18.65400
X20.04060 Y18.65400
X20.04060 Y18.67940
X20.06600 Y18.67940
X20.06600 Y18.70480
X20.09140 Y18.70480
X20.09140 Y18.73020
X20.11680 Y18.73020
X20.11680 Y18.75560
X20.14220 Y18.75560
X20.14220 Y18.78100
X20.16760 Y18.78100
X20.16760 Y18.80640
X20.19300 Y18.80640
X20.19300 Y18.83180
X20.21840 Y18.83180
X20.21840 Y18.85720
X20.24380 Y18.85720
X20.24380 Y18.88260
X20.26920 Y18.88260
X20.26920 Y18.90800
X20.29460 Y18.90800
X20.29460 Y18.93340
X20.32000 Y18.93340
X20.32000 Y18.95880
X20.34540 Y18.95880
X20.34540 Y18.98420
X20.37080 Y18.98420
X20.37080 Y19.00960
X20.42160 Y19.00960
X20.42160 Y19.03500
X29.69260 Y19.03500
X29.69260 Y19.00960
X29.74340 Y19.00960
X29.74340 Y18.98420
X29.76880 Y18.98420
X29.76880 Y18.95880
X29.79420 Y18.95880
X29.79420 Y18.93340
X29.81960 Y18.93340
X29.81960 Y18.90800
X29.84500 Y18.90800
X29.84500 Y18.88260
X29.87040 Y18.88260
X29.87040 Y18.85720
X29.89580 Y18.85720
X29.89580 Y18.83180
X29.92120 Y18.83180
X29.92120 Y18.80640
X29.94660 Y18.80640
X29.94660 Y18.78100
X29.97200 Y18.78100
X29.97200 Y18.75560
X29.99740 Y18.75560
X29.99740 Y18.73020
X30.02280 Y18.73020
X30.02280 Y18.70480
X30.04820 Y18.70480
X30.04820 Y18.67940
X30.07360 Y18.67940
X30.07360 Y18.65400
X30.09900 Y18.65400
X30.09900 Y18.62860
X30.12440 Y18.62860
X30.12440 Y18.60320
X30.14980 Y18.60320
X30.14980 Y18.57780
X30.17520 Y18.57780
X30.17520 Y18.55240
X30.20060 Y18.55240
X30.20060 Y18.52700
X30.22600 Y18.52700
X30.22600 Y18.50160
X30.25140 Y18.50160
X30.25140 Y18.47620
X30.27680 Y18.47620
X30.27680 Y18.45080
X30.30220 Y18.45080
X30.30220 Y18.42540
X30.32760 Y18.42540
X30.32760 Y18.40000
X30.35300 Y18.40000
X30.35300 Y18.37460
X30.37840 Y18.37460
X30.37840 Y18.34920
X30.40380 Y18.34920
X30.40380 Y18.32380
X30.42920 Y18.32380
X30.42920 Y18.29840
X30.45460 Y18.29840
X30.45460 Y18.27300
X30.48000 Y18.27300
X30.48000 Y18.24760
X30.50540 Y18.24760
X30.50540 Y18.22220
X30.53080 Y18.22220
X30.53080 Y18.19680
X30.55620 Y18.19680
X30.55620 Y18.17140
X30.58160 Y18.17140
X30.58160 Y18.14600
X30.60700 Y18.14600
X30.60700 Y18.12060
X30.63240 Y18.12060
X30.63240 Y18.09520
X30.65780 Y18.09520
X30.65780 Y18.06980
X30.68320 Y18.06980
X30.68320 Y18.04440
X30.70860 Y18.04440
X30.70860 Y18.01900
X30.73400 Y18.01900
X30.73400 Y17.99360
X30.75940 Y17.99360
X30.75940 Y17.96820
X30.78480 Y17.96820
X30.78480 Y17.94280
X30.81020 Y17.94280
X30.81020 Y17.91740
X30.83560 Y17.91740
X30.83560 Y17.89200
X30.86100 Y17.89200
X30.86100 Y17.86660
X30.88640 Y17.86660
X30.88640 Y17.84120
X30.91180 Y17.84120
X30.91180 Y17.81580
X30.93720 Y17.81580
X30.93720 Y17.79040
X30.96260 Y17.79040
X30.96260 Y17.76500
X30.98800 Y17.76500
X30.98800 Y17.73960
X31.01340 Y17.73960
X31.01340 Y17.71420
X31.03880 Y17.71420
X31.03880 Y21.01620
X31.06420 Y21.01620
X31.06420 Y21.06700
X31.08960 Y21.06700
X31.08960 Y21.09240
X31.11500 Y21.09240
X31.11500 Y21.11780
X31.14040 Y21.11780
X31.14040 Y21.14320
X31.16580 Y21.14320
X31.16580 Y21.16860
X31.19120 Y21.16860
X31.19120 Y21.19400
X31.21660 Y21.19400
X31.21660 Y21.21940
X31.24200 Y21.21940
X31.24200 Y21.24480
X31.26740 Y21.24480
X31.26740 Y21.27020
X31.29280 Y21.27020
X31.29280 Y21.29560
X31.31820 Y21.29560
X31.31820 Y21.32100
X31.34360 Y21.32100
X31.34360 Y21.34640
X31.36900 Y21.34640
X31.36900 Y21.37180
X31.39440 Y21.37180
X31.39440 Y21.39720
X31.41980 Y21.39720
X31.41980 Y21.42260
X31.44520 Y21.42260
X31.44520 Y21.44800
X31.47060 Y21.44800
X31.47060 Y21.47340
X31.49600 Y21.47340
X31.49600 Y21.49880
X31.52140 Y21.49880
X31.52140 Y21.52420
X31.54680 Y21.52420
X31.54680 Y21.54960
X31.57220 Y21.54960
X31.57220 Y21.57500
X31.59760 Y21.57500
X31.59760 Y21.60040
X31.62300 Y21.60040
X31.62300 Y21.62580
X31.64840 Y21.62580
X31.64840 Y21.65120
X31.67380 Y21.65120
X31.67380 Y21.67660
X31.69920 Y21.67660
X31.69920 Y21.70200
X31.72460 Y21.70200
X31.72460 Y21.72740
X31.75000 Y21.72740
X31.75000 Y21.75280
X31.77540 Y21.75280
X31.77540 Y21.77820
X31.80080 Y21.77820
X31.80080 Y21.80360
X31.82620 Y21.80360
X31.82620 Y21.82900
X31.85160 Y21.82900
X31.85160 Y21.85440
X31.87700 Y21.85440
X31.87700 Y21.87980
X31.90240 Y21.87980
X31.90240 Y21.90520
X31.92780 Y21.90520
X31.92780 Y21.93060
X31.95320 Y21.93060
X31.95320 Y21.95600
X31.97860 Y21.95600
X31.97860 Y21.98140
X32.00400 Y21.98140
X32.00400 Y22.00680
X32.02940 Y22.00680
X32.02940 Y22.03220
X32.05480 Y22.03220
X32.05480 Y22.05760
X32.08020 Y22.05760
X32.08020 Y22.08300
X32.10560 Y22.08300
X32.10560 Y22.10840
X32.13100 Y22.10840
X32.13100 Y22.13380
X32.15640 Y22.13380
X32.15640 Y22.15920
X32.18180 Y22.15920
X32.18180 Y22.18460
X32.20720 Y22.18460
X32.20720 Y22.21000
X32.23260 Y22.21000
X32.23260 Y22.23540
X32.25800 Y22.23540
X32.25800 Y22.26080
X32.28340 Y22.26080
X32.28340 Y22.28620
X32.30880 Y22.28620
X32.30880 Y22.31160
X32.33420 Y22.31160
X32.33420 Y22.33700
X32.35960 Y22.33700
X32.35960 Y22.36240
X32.38500 Y22.36240
X32.38500 Y22.38780
X32.41040 Y22.38780
X32.41040 Y22.41320
X32.43580 Y22.41320
X32.43580 Y22.43860
X32.46120 Y22.43860
X32.46120 Y22.46400
X32.48660 Y22.46400
X32.48660 Y22.48940
X32.51200 Y22.48940
X32.51200 Y22.51480
X32.53740 Y22.51480
X32.53740 Y22.54020
X32.56280 Y22.54020
X32.56280 Y22.56560
X32.58820 Y22.56560
X32.58820 Y22.59100
X32.61360 Y22.59100
X32.61360 Y22.61640
X32.63900 Y22.61640
X32.63900 Y22.64180
X32.66440 Y22.64180
X32.66440 Y22.66720
X32.68980 Y22.66720
X32.68980 Y22.69260
X32.71520 Y22.69260
X32.71520 Y22.71800
X32.74060 Y22.71800
X32.74060 Y22.74340
X32.76600 Y22.74340
X32.76600 Y22.76880
X32.79140 Y22.76880
X32.79140 Y22.79420
X32.81680 Y22.79420
X32.81680 Y22.81960
X32.84220 Y22.81960
X32.84220 Y22.84500
X32.86760 Y22.84500
X32.86760 Y22.87040
X32.89300 Y22.87040
X32.89300 Y22.89580
X32.91840 Y22.89580
X32.91840 Y22.92120
X32.94380 Y22.92120
X32.94380 Y22.94660
X32.96920 Y22.94660
X32.96920 Y22.97200
X32.99460 Y22.97200
X32.99460 Y22.99740
X33.02000 Y22.99740
X33.02000 Y23.02280
X33.04540 Y23.02280
X33.04540 Y23.04820
X33.07080 Y23.04820
X33.07080 Y23.07360
X33.09620 Y23.07360
X33.09620 Y23.09900
X33.12160 Y23.09900
X33.12160 Y23.12440
X33.14700 Y23.12440
X33.14700 Y23.14980
X33.17240 Y23.14980
X33.17240 Y23.17520
X33.19780 Y23.17520
X33.19780 Y23.20060
X33.22320 Y23.20060
X33.22320 Y23.22600
X33.24860 Y23.22600
X33.24860 Y23.25140
X33.27400 Y23.25140
X33.27400 Y23.27680
X33.29940 Y23.27680
X33.29940 Y23.30220
X33.32480 Y23.30220
X33.32480 Y23.32760
X33.35020 Y23.32760
X33.35020 Y23.35300
X33.37560 Y23.35300
X33.37560 Y23.37840
X33.40100 Y23.37840
X33.40100 Y23.40380
X33.42640 Y23.40380
X33.42640 Y23.42920
X33.45180 Y23.42920
X33.45180 Y23.45460
X33.47720 Y23.45460
X33.47720 Y23.48000
X33.50260 Y23.48000
X33.50260 Y23.50540
X33.52800 Y23.50540
X33.52800 Y23.53080
X33.55340 Y23.53080
X33.55340 Y23.55620
X33.57880 Y23.55620
X33.57880 Y23.58160
X33.60420 Y23.58160
X33.60420 Y23.60700
X33.62960 Y23.60700
X33.62960 Y23.63240
X33.65500 Y23.63240
X33.65500 Y23.65780
X33.68040 Y23.65780
X33.68040 Y23.68320
X33.70580 Y23.68320
X33.70580 Y23.70860
X33.73120 Y23.70860
X33.73120 Y23.73400
X33.75660 Y23.73400
X33.75660 Y23.75940
X33.78200 Y23.75940
X33.78200 Y23.78480
X33.80740 Y23.78480
X33.80740 Y23.81020
X33.83280 Y23.81020
X33.83280 Y23.83560
X33.85820 Y23.83560
X33.85820 Y23.86100
X33.88360 Y23.86100
X33.88360 Y23.88640
X33.90900 Y23.88640
X33.90900 Y23.91180
X33.93440 Y23.91180
X33.93440 Y23.93720
X33.95980 Y23.93720
X33.95980 Y23.96260
X33.98520 Y23.96260
X33.98520 Y23.98800
X34.01060 Y23.98800
X34.01060 Y24.01340
X34.03600 Y24.01340
X34.03600 Y24.03880
X34.06140 Y24.03880
X34.06140 Y24.06420
X34.08680 Y24.06420
X34.08680 Y24.08960
X34.11220 Y24.08960
X34.11220 Y24.11500
X34.13760 Y24.11500
X34.13760 Y24.14040
X34.16300 Y24.14040
X34.16300 Y24.16580
X34.18840 Y24.16580
X34.18840 Y24.19120
X34.21380 Y24.19120
X34.21380 Y24.21660
X34.23920 Y24.21660
X34.23920 Y24.24200
X34.26460 Y24.24200
X34.26460 Y24.26740
X34.29000 Y24.26740
X34.29000 Y24.29280
X34.31540 Y24.29280
X34.31540 Y24.31820
X34.34080 Y24.31820
X34.34080 Y24.34360
X34.39160 Y24.34360
X34.39160 Y24.36900
X43.76420 Y24.36900
X43.76420 Y24.34360
X43.78960 Y24.34360
X43.78960 Y24.31820
X43.84040 Y24.31820
X43.84040 Y24.29280
G04 P0 ( dwell for no time -- G64 should not smooth over this point )
G01
G01
G00 Z2.03200 ( retract )

G00 X37.51580 Y22.26080 ( rapid move to begin. )
G01 Z-0.15240
G04 P0 ( dwell for no time -- G64 should not smooth over this point )
G01
X37.51580 Y22.26080
X37.51580 Y20.94000
X35.91560 Y20.94000
X35.91560 Y21.44800
X33.85820 Y21.44800
X33.85820 Y21.42260
X33.83280 Y21.42260
X33.83280 Y21.39720
X33.80740 Y21.39720
X33.80740 Y21.37180
X33.78200 Y21.37180
X33.78200 Y21.34640
X33.75660 Y21.34640
X33.75660 Y21.32100
X33.73120 Y21.32100
X33.73120 Y21.29560
X33.70580 Y21.29560
X33.70580 Y21.27020
X33.68040 Y21.27020
X33.68040 Y21.24480
X33.65500 Y21.24480
X33.65500 Y21.21940
X33.62960 Y21.21940
X33.62960 Y21.19400
X33.60420 Y21.19400
X33.60420 Y21.16860
X33.57880 Y21.16860
X33.57880 Y21.14320
X33.55340 Y21.14320
X33.55340 Y21.11780
X33.52800 Y21.11780
X33.52800 Y21.09240
X33.50260 Y21.09240
X33.50260 Y21.06700
X33.47720 Y21.06700
X33.47720 Y21.04160
X33.45180 Y21.04160
X33.45180 Y21.01620
X33.42640 Y21.01620
X33.42640 Y20.99080
X33.40100 Y20.99080
X33.40100 Y20.96540
X33.37560 Y20.96540
X33.37560 Y20.94000
X33.35020 Y20.94000
X33.35020 Y20.91460
X33.32480 Y20.91460
X33.32480 Y20.88920
X33.29940 Y20.88920
X33.29940 Y20.86380
X33.27400 Y20.86380
X33.27400 Y20.83840
X33.24860 Y20.83840
X33.24860 Y20.81300
X33.22320 Y20.81300
X33.22320 Y20.78760
X33.19780 Y20.78760
X33.19780 Y20.76220
X33.17240 Y20.76220
X33.17240 Y16.69820
X33.14700 Y16.69820
X33.14700 Y16.64740
X33.12160 Y16.64740
X33.12160 Y16.62200
X33.09620 Y16.62200
X33.09620 Y16.59660
X33.07080 Y16.59660
X33.07080 Y16.57120
X33.04540 Y16.57120
X33.04540 Y16.54580
X33.02000 Y16.54580
X33.02000 Y16.52040
X32.99460 Y16.52040
X32.99460 Y16.49500
X32.96920 Y16.49500
X32.96920 Y16.46960
X32.94380 Y16.46960
X32.94380 Y16.44420
X32.91840 Y16.44420
X32.91840 Y16.41880
X32.89300 Y16.41880
X32.89300 Y16.39340
X32.86760 Y16.39340
X32.86760 Y16.36800
X32.84220 Y16.36800
X32.84220 Y16.34260
X32.81680 Y16.34260
X32.81680 Y16.31720
X32.79140 Y16.31720
X32.79140 Y16.29180
X32.76600 Y16.29180
X32.76600 Y16.26640
X32.74060 Y16.26640
X32.74060 Y16.24100
X32.71520 Y16.24100
X32.71520 Y16.21560
X32.68980 Y16.21560
X32.68980 Y16.19020
X32.66440 Y16.19020
X32.66440 Y16.16480
X32.63900 Y16.16480
X32.63900 Y16.13940
X32.61360 Y16.13940
X32.61360 Y16.11400
X32.58820 Y16.11400
X32.58820 Y16.08860
X32.56280 Y16.08860
X32.56280 Y16.06320
X32.53740 Y16.06320
X32.53740 Y16.03780
X32.51200 Y16.03780
X32.51200 Y16.01240
X32.48660 Y16.01240
X32.48660 Y15.98700
X32.46120 Y15.98700
X32.46120 Y15.96160
X32.43580 Y15.96160
X32.43580 Y15.93620
X32.41040 Y15.93620
X32.41040 Y15.91080
X32.38500 Y15.91080
X32.38500 Y15.88540
X32.35960 Y15.88540
X32.35960 Y15.86000
X32.33420 Y15.86000
X32.33420 Y15.83460
X32.30880 Y15.83460
X32.30880 Y15.80920
X32.28340 Y15.80920
X32.28340 Y15.78380
X32.25800 Y15.78380
X32.25800 Y15.75840
X32.20720 Y15.75840
X32.20720 Y15.73300
X32.02940 Y15.73300
X32.02940 Y15.55520
X30.42920 Y15.55520
X30.42920 Y16.29180
X32.02940 Y16.29180
X32.02940 Y16.19020
X32.05480 Y16.19020
X32.05480 Y16.21560
X32.08020 Y16.21560
X32.08020 Y16.24100
X32.10560 Y16.24100
X32.10560 Y16.26640
X32.13100 Y16.26640
X32.13100 Y16.29180
X32.15640 Y16.29180
X32.15640 Y16.31720
X32.18180 Y16.31720
X32.18180 Y16.34260
X32.20720 Y16.34260
X32.20720 Y16.36800
X32.23260 Y16.36800
X32.23260 Y16.39340
X32.25800 Y16.39340
X32.25800 Y16.41880
X32.28340 Y16.41880
X32.28340 Y16.44420
X32.30880 Y16.44420
X32.30880 Y16.46960
X32.33420 Y16.46960
X32.33420 Y16.49500
X32.35960 Y16.49500
X32.35960 Y16.52040
X32.38500 Y16.52040
X32.38500 Y16.54580
X32.41040 Y16.54580
X32.41040 Y16.57120
X32.43580 Y16.57120
X32.43580 Y16.59660
X32.46120 Y16.59660
X32.46120 Y16.62200
X32.48660 Y16.62200
X32.48660 Y16.64740
X32.51200 Y16.64740
X32.51200 Y16.67280
X32.53740 Y16.67280
X32.53740 Y16.69820
X32.56280 Y16.69820
X32.56280 Y16.72360
X32.58820 Y16.72360
X32.58820 Y16.74900
X32.61360 Y16.74900
X32.61360 Y16.77440
X32.63900 Y16.77440
X32.63900 Y16.79980
X32.66440 Y16.79980
X32.66440 Y16.82520
X32.68980 Y16.82520
X32.68980 Y16.85060
X32.71520 Y16.85060
X32.71520 Y16.87600
X32.74060 Y16.87600
X32.74060 Y16.90140
X32.76600 Y16.90140
X32.76600 Y16.92680
X32.79140 Y16.92680
X32.79140 Y20.99080
X32.81680 Y20.99080
X32.81680 Y21.04160
X32.84220 Y21.04160
X32.84220 Y21.06700
X32.86760 Y21.06700
X32.86760 Y21.09240
X32.89300 Y21.09240
X32.89300 Y21.11780
X32.91840 Y21.11780
X32.91840 Y21.14320
X32.94380 Y21.14320
X32.94380 Y21.16860
X32.96920 Y21.16860
X32.96920 Y21.19400
X32.99460 Y21.19400
X32.99460 Y21.21940
X33.02000 Y21.21940
X33.02000 Y21.24480
X33.04540 Y21.24480
X33.04540 Y21.27020
X33.07080 Y21.27020
X33.07080 Y21.29560
X33.09620 Y21.29560
X33.09620 Y21.32100
X33.12160 Y21.32100
X33.12160 Y21.34640
X33.14700 Y21.34640
X33.14700 Y21.37180
X33.17240 Y21.37180
X33.17240 Y21.39720
X33.19780 Y21.39720
X33.19780 Y21.42260
X33.22320 Y21.42260
X33.22320 Y21.44800
X33.24860 Y21.44800
X33.24860 Y21.47340
X33.27400 Y21.47340
X33.27400 Y21.49880
X33.29940 Y21.49880
X33.29940 Y21.52420
X33.32480 Y21.52420
X33.32480 Y21.54960
X33.35020 Y21.54960
X33.35020 Y21.57500
X33.37560 Y21.57500
X33.37560 Y21.60040
X33.40100 Y21.60040
X33.40100 Y21.62580
X33.42640 Y21.62580
X33.42640 Y21.65120
X33.45180 Y21.65120
X33.45180 Y21.67660
X33.47720 Y21.67660
X33.47720 Y21.70200
X33.50260 Y21.70200
X33.50260 Y21.72740
X33.52800 Y21.72740
X33.52800 Y21.75280
X33.55340 Y21.75280
X33.55340 Y21.77820
X33.57880 Y21.77820
X33.57880 Y21.80360
X33.62960 Y21.80360
X33.62960 Y21.82900
X35.91560 Y21.82900
X35.91560 Y22.33700
X37.51580 Y22.33700
X37.51580 Y22.26080
G04 P0 ( dwell for no time -- G64 should not smooth over this point )
G01
G00 Z2.03200 ( retract )

G00 X40.20820 Y22.26080 ( rapid move to begin. )
G01 Z-0.15240
G04 P0 ( dwell for no time -- G64 should not smooth over this point )
G01
X40.20820 Y22.26080
X40.20820 Y21.82900
X40.99560 Y21.82900
X40.99560 Y22.33700
X42.59580 Y22.33700
X42.59580 Y20.94000
X40.99560 Y20.94000
X40.99560 Y21.44800
X40.20820 Y21.44800
X40.20820 Y20.94000
X38.60800 Y20.94000
X38.60800 Y22.33700
X40.20820 Y22.33700
X40.20820 Y22.26080
G04 P0 ( dwell for no time -- G64 should not smooth over this point )
G01
G00 Z2.03200 ( retract )

G00 X37.51580 Y19.72080 ( rapid move to begin. )
G01 Z-0.15240
G04 P0 ( dwell for no time -- G64 should not smooth over this point )
G01
X37.51580 Y19.72080
X37.51580 Y18.40000
X35.91560 Y18.40000
X35.91560 Y18.90800
X34.87420 Y18.90800
X34.87420 Y18.88260
X34.84880 Y18.88260
X34.84880 Y18.85720
X34.82340 Y18.85720
X34.82340 Y18.83180
X34.79800 Y18.83180
X34.79800 Y18.80640
X34.77260 Y18.80640
X34.77260 Y18.78100
X34.74720 Y18.78100
X34.74720 Y18.75560
X34.72180 Y18.75560
X34.72180 Y18.73020
X34.69640 Y18.73020
X34.69640 Y18.70480
X34.67100 Y18.70480
X34.67100 Y18.67940
X34.64560 Y18.67940
X34.64560 Y18.65400
X34.62020 Y18.65400
X34.62020 Y18.62860
X34.59480 Y18.62860
X34.59480 Y18.60320
X34.56940 Y18.60320
X34.56940 Y18.57780
X34.54400 Y18.57780
X34.54400 Y18.55240
X34.51860 Y18.55240
X34.51860 Y18.52700
X34.49320 Y18.52700
X34.49320 Y18.50160
X34.46780 Y18.50160
X34.46780 Y18.47620
X34.44240 Y18.47620
X34.44240 Y16.95220
X34.41700 Y16.95220
X34.41700 Y16.90140
X34.39160 Y16.90140
X34.39160 Y16.87600
X34.36620 Y16.87600
X34.36620 Y16.85060
X34.34080 Y16.85060
X34.34080 Y16.82520
X34.31540 Y16.82520
X34.31540 Y16.79980
X34.29000 Y16.79980
X34.29000 Y16.77440
X34.26460 Y16.77440
X34.26460 Y16.74900
X34.23920 Y16.74900
X34.23920 Y16.72360
X34.21380 Y16.72360
X34.21380 Y16.69820
X34.18840 Y16.69820
X34.18840 Y16.67280
X34.16300 Y16.67280
X34.16300 Y16.64740
X34.13760 Y16.64740
X34.13760 Y16.62200
X34.11220 Y16.62200
X34.11220 Y16.59660
X34.08680 Y16.59660
X34.08680 Y16.57120
X34.06140 Y16.57120
X34.06140 Y16.54580
X34.03600 Y16.54580
X34.03600 Y16.52040
X34.01060 Y16.52040
X34.01060 Y16.49500
X33.98520 Y16.49500
X33.98520 Y16.46960
X33.95980 Y16.46960
X33.95980 Y16.44420
X33.93440 Y16.44420
X33.93440 Y16.41880
X33.90900 Y16.41880
X33.90900 Y16.39340
X33.88360 Y16.39340
X33.88360 Y16.36800
X33.85820 Y16.36800
X33.85820 Y16.34260
X33.83280 Y16.34260
X33.83280 Y16.31720
X33.80740 Y16.31720
X33.80740 Y16.29180
X33.78200 Y16.29180
X33.78200 Y16.26640
X33.75660 Y16.26640
X33.75660 Y16.24100
X33.73120 Y16.24100
X33.73120 Y16.21560
X33.70580 Y16.21560
X33.70580 Y16.19020
X33.68040 Y16.19020
X33.68040 Y16.16480
X33.65500 Y16.16480
X33.65500 Y16.13940
X33.62960 Y16.13940
X33.62960 Y16.11400
X33.60420 Y16.11400
X33.60420 Y16.08860
X33.57880 Y16.08860
X33.57880 Y16.06320
X33.55340 Y16.06320
X33.55340 Y16.03780
X33.52800 Y16.03780
X33.52800 Y16.01240
X33.50260 Y16.01240
X33.50260 Y15.98700
X33.47720 Y15.98700
X33.47720 Y15.96160
X33.45180 Y15.96160
X33.45180 Y15.93620
X33.42640 Y15.93620
X33.42640 Y15.91080
X33.40100 Y15.91080
X33.40100 Y15.88540
X33.37560 Y15.88540
X33.37560 Y15.86000
X33.35020 Y15.86000
X33.35020 Y15.83460
X33.32480 Y15.83460
X33.32480 Y15.80920
X33.29940 Y15.80920
X33.29940 Y15.78380
X33.27400 Y15.78380
X33.27400 Y15.75840
X33.24860 Y15.75840
X33.24860 Y15.73300
X33.22320 Y15.73300
X33.22320 Y15.70760
X33.19780 Y15.70760
X33.19780 Y15.68220
X33.17240 Y15.68220
X33.17240 Y15.65680
X33.14700 Y15.65680
X33.14700 Y15.63140
X33.12160 Y15.63140
X33.12160 Y15.60600
X33.09620 Y15.60600
X33.09620 Y15.58060
X33.07080 Y15.58060
X33.07080 Y15.55520
X33.04540 Y15.55520
X33.04540 Y15.52980
X33.02000 Y15.52980
X33.02000 Y15.50440
X32.99460 Y15.50440
X32.99460 Y15.47900
X32.96920 Y15.47900
X32.96920 Y15.45360
X32.94380 Y15.45360
X32.94380 Y15.42820
X32.91840 Y15.42820
X32.91840 Y15.40280
X32.89300 Y15.40280
X32.89300 Y15.37740
X32.86760 Y15.37740
X32.86760 Y15.35200
X32.84220 Y15.35200
X32.84220 Y15.32660
X32.81680 Y15.32660
X32.81680 Y15.30120
X32.79140 Y15.30120
X32.79140 Y15.27580
X32.76600 Y15.27580
X32.76600 Y15.25040
X32.74060 Y15.25040
X32.74060 Y15.22500
X32.71520 Y15.22500
X32.71520 Y15.19960
X32.68980 Y15.19960
X32.68980 Y15.17420
X32.66440 Y15.17420
X32.66440 Y15.14880
X32.63900 Y15.14880
X32.63900 Y15.12340
X32.61360 Y15.12340
X32.61360 Y15.09800
X32.58820 Y15.09800
X32.58820 Y15.07260
X32.56280 Y15.07260
X32.56280 Y15.04720
X32.53740 Y15.04720
X32.53740 Y15.02180
X32.51200 Y15.02180
X32.51200 Y14.99640
X32.48660 Y14.99640
X32.48660 Y14.97100
X32.46120 Y14.97100
X32.46120 Y14.94560
X32.43580 Y14.94560
X32.43580 Y14.92020
X32.41040 Y14.92020
X32.41040 Y14.89480
X32.38500 Y14.89480
X32.38500 Y14.86940
X32.35960 Y14.86940
X32.35960 Y14.84400
X32.33420 Y14.84400
X32.33420 Y14.81860
X32.30880 Y14.81860
X32.30880 Y14.79320
X32.28340 Y14.79320
X32.28340 Y14.76780
X32.25800 Y14.76780
X32.25800 Y14.74240
X32.23260 Y14.74240
X32.23260 Y14.71700
X32.20720 Y14.71700
X32.20720 Y14.69160
X32.18180 Y14.69160
X32.18180 Y14.66620
X32.15640 Y14.66620
X32.15640 Y14.64080
X32.13100 Y14.64080
X32.13100 Y14.61540
X32.10560 Y14.61540
X32.10560 Y14.59000
X32.08020 Y14.59000
X32.08020 Y14.56460
X32.05480 Y14.56460
X32.05480 Y14.53920
X32.02940 Y14.53920
X32.02940 Y14.28520
X30.42920 Y14.28520
X30.42920 Y15.02180
X31.90240 Y15.02180
X31.90240 Y15.04720
X31.92780 Y15.04720
X31.92780 Y15.07260
X31.95320 Y15.07260
X31.95320 Y15.09800
X31.97860 Y15.09800
X31.97860 Y15.12340
X32.00400 Y15.12340
X32.00400 Y15.14880
X32.02940 Y15.14880
X32.02940 Y15.17420
X32.05480 Y15.17420
X32.05480 Y15.19960
X32.08020 Y15.19960
X32.08020 Y15.22500
X32.10560 Y15.22500
X32.10560 Y15.25040
X32.13100 Y15.25040
X32.13100 Y15.27580
X32.15640 Y15.27580
X32.15640 Y15.30120
X32.18180 Y15.30120
X32.18180 Y15.32660
X32.20720 Y15.32660
X32.20720 Y15.35200
X32.23260 Y15.35200
X32.23260 Y15.37740
X32.25800 Y15.37740
X32.25800 Y15.40280
X32.28340 Y15.40280
X32.28340 Y15.42820
X32.30880 Y15.42820
X32.30880 Y15.45360
X32.33420 Y15.45360
X32.33420 Y15.47900
X32.35960 Y15.47900
X32.35960 Y15.50440
X32.38500 Y15.50440
X32.38500 Y15.52980
X32.41040 Y15.52980
X32.41040 Y15.55520
X32.43580 Y15.55520
X32.43580 Y15.58060
X32.46120 Y15.58060
X32.46120 Y15.60600
X32.48660 Y15.60600
X32.48660 Y15.63140
X32.51200 Y15.63140
X32.51200 Y15.65680
X32.53740 Y15.65680
X32.53740 Y15.68220
X32.56280 Y15.68220
X32.56280 Y15.70760
X32.58820 Y15.70760
X32.58820 Y15.73300
X32.61360 Y15.73300
X32.61360 Y15.75840
X32.63900 Y15.75840
X32.63900 Y15.78380
X32.66440 Y15.78380
X32.66440 Y15.80920
X32.68980 Y15.80920
X32.68980 Y15.83460
X32.71520 Y15.83460
X32.71520 Y15.86000
X32.74060 Y15.86000
X32.74060 Y15.88540
X32.76600 Y15.88540
X32.76600 Y15.91080
X32.79140 Y15.91080
X32.79140 Y15.93620
X32.81680 Y15.93620
X32.81680 Y15.96160
X32.84220 Y15.96160
X32.84220 Y15.98700
X32.86760 Y15.98700
X32.86760 Y16.01240
X32.89300 Y16.01240
X32.89300 Y16.03780
X32.91840 Y16.03780
X32.91840 Y16.06320
X32.94380 Y16.06320
X32.94380 Y16.08860
X32.96920 Y16.08860
X32.96920 Y16.11400
X32.99460 Y16.11400
X32.99460 Y16.13940
X33.02000 Y16.13940
X33.02000 Y16.16480
X33.04540 Y16.16480
X33.04540 Y16.19020
X33.07080 Y16.19020
X33.07080 Y16.21560
X33.09620 Y16.21560
X33.09620 Y16.24100
X33.12160 Y16.24100
X33.12160 Y16.26640
X33.14700 Y16.26640
X33.14700 Y16.29180
X33.17240 Y16.29180
X33.17240 Y16.31720
X33.19780 Y16.31720
X33.19780 Y16.34260
X33.22320 Y16.34260
X33.22320 Y16.36800
X33.24860 Y16.36800
X33.24860 Y16.39340
X33.27400 Y16.39340
X33.27400 Y16.41880
X33.29940 Y16.41880
X33.29940 Y16.44420
X33.32480 Y16.44420
X33.32480 Y16.46960
X33.35020 Y16.46960
X33.35020 Y16.49500
X33.37560 Y16.49500
X33.37560 Y16.52040
X33.40100 Y16.52040
X33.40100 Y16.54580
X33.42640 Y16.54580
X33.42640 Y16.57120
X33.45180 Y16.57120
X33.45180 Y16.59660
X33.47720 Y16.59660
X33.47720 Y16.62200
X33.50260 Y16.62200
X33.50260 Y16.64740
X33.52800 Y16.64740
X33.52800 Y16.67280
X33.55340 Y16.67280
X33.55340 Y16.69820
X33.57880 Y16.69820
X33.57880 Y16.72360
X33.60420 Y16.72360
X33.60420 Y16.74900
X33.62960 Y16.74900
X33.62960 Y16.77440
X33.65500 Y16.77440
X33.65500 Y16.79980
X33.68040 Y16.79980
X33.68040 Y16.82520
X33.70580 Y16.82520
X33.70580 Y16.85060
X33.73120 Y16.85060
X33.73120 Y16.87600
X33.75660 Y16.87600
X33.75660 Y16.90140
X33.78200 Y16.90140
X33.78200 Y16.92680
X33.80740 Y16.92680
X33.80740 Y16.95220
X33.83280 Y16.95220
X33.83280 Y16.97760
X33.85820 Y16.97760
X33.85820 Y17.00300
X33.88360 Y17.00300
X33.88360 Y17.02840
X33.90900 Y17.02840
X33.90900 Y17.05380
X33.93440 Y17.05380
X33.93440 Y17.07920
X33.95980 Y17.07920
X33.95980 Y17.10460
X33.98520 Y17.10460
X33.98520 Y17.13000
X34.01060 Y17.13000
X34.01060 Y17.15540
X34.03600 Y17.15540
X34.03600 Y17.18080
X34.06140 Y17.18080
X34.06140 Y18.70480
X34.08680 Y18.70480
X34.08680 Y18.75560
X34.11220 Y18.75560
X34.11220 Y18.78100
X34.13760 Y18.78100
X34.13760 Y18.80640
X34.16300 Y18.80640
X34.16300 Y18.83180
X34.18840 Y18.83180
X34.18840 Y18.85720
X34.21380 Y18.85720
X34.21380 Y18.88260
X34.23920 Y18.88260
X34.23920 Y18.90800
X34.26460 Y18.90800
X34.26460 Y18.93340
X34.29000 Y18.93340
X34.29000 Y18.95880
X34.31540 Y18.95880
X34.31540 Y18.98420
X34.34080 Y18.98420
X34.34080 Y19.00960
X34.36620 Y19.00960
X34.36620 Y19.03500
X34.39160 Y19.03500
X34.39160 Y19.06040
X34.41700 Y19.06040
X34.41700 Y19.08580
X34.44240 Y19.08580
X34.44240 Y19.11120
X34.46780 Y19.11120
X34.46780 Y19.13660
X34.49320 Y19.13660
X34.49320 Y19.16200
X34.51860 Y19.16200
X34.51860 Y19.18740
X34.54400 Y19.18740
X34.54400 Y19.21280
X34.56940 Y19.21280
X34.56940 Y19.23820
X34.59480 Y19.23820
X34.59480 Y19.26360
X34.64560 Y19.26360
X34.64560 Y19.28900
X35.91560 Y19.28900
X35.91560 Y19.79700
X37.51580 Y19.79700
X37.51580 Y19.72080
G04 P0 ( dwell for no time -- G64 should not smooth over this point )
G01
G00 Z2.03200 ( retract )

G00 X40.20820 Y19.72080 ( rapid move to begin. )
G01 Z-0.15240
G04 P0 ( dwell for no time -- G64 should not smooth over this point )
G01
X40.20820 Y19.72080
X40.20820 Y19.28900
X40.99560 Y19.28900
X40.99560 Y19.79700
X42.59580 Y19.79700
X42.59580 Y18.40000
X40.99560 Y18.40000
X40.99560 Y18.90800
X40.20820 Y18.90800
X40.20820 Y18.40000
X38.60800 Y18.40000
X38.60800 Y19.79700
X40.20820 Y19.79700
X40.20820 Y19.72080
G04 P0 ( dwell for no time -- G64 should not smooth over this point )
G01
G00 Z2.03200 ( retract )

G00 X26.64460 Y17.48560 ( rapid move to begin. )
G01 Z-0.15240
G04 P0 ( dwell for no time -- G64 should not smooth over this point )
G01
X26.64460 Y17.48560
X26.64460 Y16.82520
X25.04440 Y16.82520
X25.04440 Y17.56180
X26.64460 Y17.56180
X26.64460 Y17.48560
G04 P0 ( dwell for no time -- G64 should not smooth over this point )
G01
G00 Z2.03200 ( retract )

G00 X17.29740 Y17.30780 ( rapid move to begin. )
G01 Z-0.15240
G04 P0 ( dwell for no time -- G64 should not smooth over this point )
G01
X17.29740 Y17.30780
X17.32280 Y17.30780
X17.32280 Y17.28240
X17.34820 Y17.28240
X17.34820 Y17.25700
X17.37360 Y17.25700
X17.37360 Y17.23160
X17.39900 Y17.23160
X17.39900 Y17.20620
X17.42440 Y17.20620
X17.42440 Y17.18080
X17.44980 Y17.18080
X17.44980 Y17.15540
X17.47520 Y17.15540
X17.47520 Y17.13000
X17.50060 Y17.13000
X17.50060 Y17.10460
X17.52600 Y17.10460
X17.52600 Y17.07920
X17.55140 Y17.07920
X17.55140 Y17.05380
X17.57680 Y17.05380
X17.57680 Y17.02840
X17.60220 Y17.02840
X17.60220 Y17.00300
X17.62760 Y17.00300
X17.62760 Y16.97760
X17.65300 Y16.97760
X17.65300 Y16.95220
X17.67840 Y16.95220
X17.67840 Y16.92680
X17.70380 Y16.92680
X17.70380 Y16.90140
X17.72920 Y16.90140
X17.72920 Y16.87600
X17.75460 Y16.87600
X17.75460 Y16.85060
X17.78000 Y16.85060
X17.78000 Y16.82520
X17.80540 Y16.82520
X17.80540 Y16.79980
X17.83080 Y16.79980
X17.83080 Y16.77440
X17.85620 Y16.77440
X17.85620 Y16.74900
X17.88160 Y16.74900
X17.88160 Y16.72360
X17.90700 Y16.72360
X17.90700 Y16.67280
X17.93240 Y16.67280
X17.93240 Y13.90420
X17.90700 Y13.90420
X17.90700 Y13.85340
X17.88160 Y13.85340
X17.88160 Y13.82800
X17.85620 Y13.82800
X17.85620 Y13.80260
X17.83080 Y13.80260
X17.83080 Y13.77720
X17.80540 Y13.77720
X17.80540 Y13.75180
X17.78000 Y13.75180
X17.78000 Y13.72640
X17.75460 Y13.72640
X17.75460 Y13.70100
X17.72920 Y13.70100
X17.72920 Y13.67560
X17.70380 Y13.67560
X17.70380 Y13.65020
X17.67840 Y13.65020
X17.67840 Y13.62480
X17.65300 Y13.62480
X17.65300 Y13.59940
X17.62760 Y13.59940
X17.62760 Y13.57400
X17.60220 Y13.57400
X17.60220 Y13.54860
X17.57680 Y13.54860
X17.57680 Y13.52320
X17.55140 Y13.52320
X17.55140 Y13.49780
X17.52600 Y13.49780
X17.52600 Y13.47240
X17.50060 Y13.47240
X17.50060 Y13.44700
X17.47520 Y13.44700
X17.47520 Y13.42160
X17.44980 Y13.42160
X17.44980 Y13.39620
X17.42440 Y13.39620
X17.42440 Y13.37080
X17.39900 Y13.37080
X17.39900 Y13.34540
X17.37360 Y13.34540
X17.37360 Y13.32000
X17.34820 Y13.32000
X17.34820 Y13.29460
X17.32280 Y13.29460
X17.32280 Y13.26920
X17.29740 Y13.26920
X17.29740 Y13.24380
X17.27200 Y13.24380
X17.27200 Y13.21840
X17.22120 Y13.21840
X17.22120 Y13.19300
X16.89100 Y13.19300
X16.89100 Y12.98980
X15.08760 Y12.98980
X15.08760 Y13.77720
X16.89100 Y13.77720
X16.89100 Y13.57400
X16.99260 Y13.57400
X16.99260 Y13.59940
X17.01800 Y13.59940
X17.01800 Y13.62480
X17.04340 Y13.62480
X17.04340 Y13.65020
X17.06880 Y13.65020
X17.06880 Y13.67560
X17.09420 Y13.67560
X17.09420 Y13.70100
X17.11960 Y13.70100
X17.11960 Y13.72640
X17.14500 Y13.72640
X17.14500 Y13.75180
X17.17040 Y13.75180
X17.17040 Y13.77720
X17.19580 Y13.77720
X17.19580 Y13.80260
X17.22120 Y13.80260
X17.22120 Y13.82800
X17.24660 Y13.82800
X17.24660 Y13.85340
X17.27200 Y13.85340
X17.27200 Y13.87880
X17.29740 Y13.87880
X17.29740 Y13.90420
X17.32280 Y13.90420
X17.32280 Y13.92960
X17.34820 Y13.92960
X17.34820 Y13.95500
X17.37360 Y13.95500
X17.37360 Y13.98040
X17.39900 Y13.98040
X17.39900 Y14.00580
X17.42440 Y14.00580
X17.42440 Y14.03120
X17.44980 Y14.03120
X17.44980 Y14.05660
X17.47520 Y14.05660
X17.47520 Y14.08200
X17.50060 Y14.08200
X17.50060 Y14.10740
X17.52600 Y14.10740
X17.52600 Y14.13280
X17.55140 Y14.13280
X17.55140 Y16.44420
X17.52600 Y16.44420
X17.52600 Y16.46960
X17.50060 Y16.46960
X17.50060 Y16.49500
X17.47520 Y16.49500
X17.47520 Y16.52040
X17.44980 Y16.52040
X17.44980 Y16.54580
X17.42440 Y16.54580
X17.42440 Y16.57120
X17.39900 Y16.57120
X17.39900 Y16.59660
X17.37360 Y16.59660
X17.37360 Y16.62200
X17.34820 Y16.62200
X17.34820 Y16.64740
X17.32280 Y16.64740
X17.32280 Y16.67280
X17.29740 Y16.67280
X17.29740 Y16.69820
X17.27200 Y16.69820
X17.27200 Y16.72360
X17.24660 Y16.72360
X17.24660 Y16.74900
X17.22120 Y16.74900
X17.22120 Y16.77440
X17.19580 Y16.77440
X17.19580 Y16.79980
X17.17040 Y16.79980
X17.17040 Y16.82520
X17.14500 Y16.82520
X17.14500 Y16.85060
X17.11960 Y16.85060
X17.11960 Y16.87600
X17.09420 Y16.87600
X17.09420 Y16.90140
X17.06880 Y16.90140
X17.06880 Y16.92680
X17.04340 Y16.92680
X17.04340 Y16.95220
X17.01800 Y16.95220
X17.01800 Y16.97760
X16.99260 Y16.97760
X16.99260 Y17.00300
X5.79120 Y17.00300
X5.79120 Y16.97760
X5.76580 Y16.97760
X5.76580 Y16.95220
X5.74040 Y16.95220
X5.74040 Y16.92680
X5.71500 Y16.92680
X5.71500 Y16.90140
X5.68960 Y16.90140
X5.68960 Y16.87600
X5.66420 Y16.87600
X5.66420 Y16.85060
X5.63880 Y16.85060
X5.63880 Y16.82520
X5.61340 Y16.82520
X5.61340 Y16.79980
X5.58800 Y16.79980
X5.58800 Y16.77440
X5.56260 Y16.77440
X5.56260 Y16.74900
X5.53720 Y16.74900
X5.53720 Y16.72360
X5.51180 Y16.72360
X5.51180 Y16.69820
X5.48640 Y16.69820
X5.48640 Y16.67280
X5.46100 Y16.67280
X5.46100 Y16.64740
X5.43560 Y16.64740
X5.43560 Y16.62200
X5.41020 Y16.62200
X5.41020 Y16.59660
X5.38480 Y16.59660
X5.38480 Y16.57120
X5.35940 Y16.57120
X5.35940 Y16.54580
X5.33400 Y16.54580
X5.33400 Y16.52040
X5.30860 Y16.52040
X5.30860 Y16.49500
X5.28320 Y16.49500
X5.28320 Y16.46960
X5.25780 Y16.46960
X5.25780 Y16.44420
X5.23240 Y16.44420
X5.23240 Y16.41880
X5.20700 Y16.41880
X5.20700 Y16.39340
X5.18160 Y16.39340
X5.18160 Y16.36800
X5.15620 Y16.36800
X5.15620 Y16.34260
X5.13080 Y16.34260
X5.13080 Y16.31720
X5.10540 Y16.31720
X5.10540 Y16.29180
X5.08000 Y16.29180
X5.08000 Y16.26640
X5.05460 Y16.26640
X5.05460 Y16.24100
X5.02920 Y16.24100
X5.02920 Y16.21560
X5.00380 Y16.21560
X5.00380 Y16.19020
X4.97840 Y16.19020
X4.97840 Y16.16480
X4.95300 Y16.16480
X4.95300 Y16.13940
X4.92760 Y16.13940
X4.92760 Y16.11400
X4.90220 Y16.11400
X4.90220 Y16.08860
X4.87680 Y16.08860
X4.87680 Y16.06320
X4.85140 Y16.06320
X4.85140 Y16.03780
X4.82600 Y16.03780
X4.82600 Y16.01240
X4.80060 Y16.01240
X4.80060 Y15.98700
X4.77520 Y15.98700
X4.77520 Y15.96160
X4.74980 Y15.96160
X4.74980 Y15.93620
X4.72440 Y15.93620
X4.72440 Y15.91080
X4.69900 Y15.91080
X4.69900 Y15.88540
X4.67360 Y15.88540
X4.67360 Y15.86000
X4.64820 Y15.86000
X4.64820 Y15.83460
X4.62280 Y15.83460
X4.62280 Y15.80920
X4.59740 Y15.80920
X4.59740 Y15.78380
X4.57200 Y15.78380
X4.57200 Y15.75840
X4.54660 Y15.75840
X4.54660 Y15.73300
X4.52120 Y15.73300
X4.52120 Y15.70760
X4.49580 Y15.70760
X4.49580 Y15.68220
X4.47040 Y15.68220
X4.47040 Y15.65680
X4.44500 Y15.65680
X4.44500 Y15.63140
X4.41960 Y15.63140
X4.41960 Y15.60600
X4.39420 Y15.60600
X4.39420 Y15.58060
X4.36880 Y15.58060
X4.36880 Y15.55520
X4.34340 Y15.55520
X4.34340 Y15.52980
X4.31800 Y15.52980
X4.31800 Y15.50440
X4.29260 Y15.50440
X4.29260 Y15.47900
X4.26720 Y15.47900
X4.26720 Y15.45360
X4.24180 Y15.45360
X4.24180 Y15.42820
X4.21640 Y15.42820
X4.21640 Y15.37740
X4.19100 Y15.37740
X4.19100 Y15.35200
X4.16560 Y15.35200
X4.16560 Y15.32660
X4.14020 Y15.32660
X4.14020 Y14.08200
X4.54660 Y14.08200
X4.54660 Y13.29460
X3.35280 Y13.29460
X3.35280 Y14.08200
X3.75920 Y14.08200
X3.75920 Y15.55520
X3.78460 Y15.55520
X3.78460 Y15.60600
X3.81000 Y15.60600
X3.81000 Y15.63140
X3.83540 Y15.63140
X3.83540 Y15.65680
X3.86080 Y15.65680
X3.86080 Y15.68220
X3.88620 Y15.68220
X3.88620 Y15.70760
X3.91160 Y15.70760
X3.91160 Y15.73300
X3.93700 Y15.73300
X3.93700 Y15.75840
X3.96240 Y15.75840
X3.96240 Y15.78380
X3.98780 Y15.78380
X3.98780 Y15.80920
X4.01320 Y15.80920
X4.01320 Y15.83460
X4.03860 Y15.83460
X4.03860 Y15.86000
X4.06400 Y15.86000
X4.06400 Y15.88540
X4.08940 Y15.88540
X4.08940 Y15.91080
X4.11480 Y15.91080
X4.11480 Y15.93620
X4.14020 Y15.93620
X4.14020 Y15.96160
X4.16560 Y15.96160
X4.16560 Y15.98700
X4.19100 Y15.98700
X4.19100 Y16.01240
X4.21640 Y16.01240
X4.21640 Y16.03780
X4.24180 Y16.03780
X4.24180 Y16.06320
X4.26720 Y16.06320
X4.26720 Y16.08860
X4.29260 Y16.08860
X4.29260 Y16.11400
X4.31800 Y16.11400
X4.31800 Y16.13940
X4.34340 Y16.13940
X4.34340 Y16.16480
X4.36880 Y16.16480
X4.36880 Y16.19020
X4.39420 Y16.19020
X4.39420 Y16.21560
X4.41960 Y16.21560
X4.41960 Y16.24100
X4.44500 Y16.24100
X4.44500 Y16.26640
X4.47040 Y16.26640
X4.47040 Y16.29180
X4.49580 Y16.29180
X4.49580 Y16.31720
X4.52120 Y16.31720
X4.52120 Y16.34260
X4.54660 Y16.34260
X4.54660 Y16.36800
X4.57200 Y16.36800
X4.57200 Y16.39340
X4.59740 Y16.39340
X4.59740 Y16.41880
X4.62280 Y16.41880
X4.62280 Y16.44420
X4.64820 Y16.44420
X4.64820 Y16.46960
X4.67360 Y16.46960
X4.67360 Y16.49500
X4.69900 Y16.49500
X4.69900 Y16.52040
X4.72440 Y16.52040
X4.72440 Y16.54580
X4.74980 Y16.54580
X4.74980 Y16.57120
X4.77520 Y16.57120
X4.77520 Y16.59660
X4.80060 Y16.59660
X4.80060 Y16.62200
X4.82600 Y16.62200
X4.82600 Y16.64740
X4.85140 Y16.64740
X4.85140 Y16.67280
X4.87680 Y16.67280
X4.87680 Y16.69820
X4.90220 Y16.69820
X4.90220 Y16.72360
X4.92760 Y16.72360
X4.92760 Y16.74900
X4.95300 Y16.74900
X4.95300 Y16.77440
X4.97840 Y16.77440
X4.97840 Y16.79980
X5.00380 Y16.79980
X5.00380 Y16.82520
X5.02920 Y16.82520
X5.02920 Y16.85060
X5.05460 Y16.85060
X5.05460 Y16.87600
X5.08000 Y16.87600
X5.08000 Y16.90140
X5.10540 Y16.90140
X5.10540 Y16.92680
X5.13080 Y16.92680
X5.13080 Y16.95220
X5.15620 Y16.95220
X5.15620 Y16.97760
X5.18160 Y16.97760
X5.18160 Y17.00300
X5.20700 Y17.00300
X5.20700 Y17.02840
X5.23240 Y17.02840
X5.23240 Y17.05380
X5.25780 Y17.05380
X5.25780 Y17.07920
X5.28320 Y17.07920
X5.28320 Y17.10460
X5.30860 Y17.10460
X5.30860 Y17.13000
X5.33400 Y17.13000
X5.33400 Y17.15540
X5.35940 Y17.15540
X5.35940 Y17.18080
X5.38480 Y17.18080
X5.38480 Y17.20620
X5.41020 Y17.20620
X5.41020 Y17.25700
X5.43560 Y17.25700
X5.43560 Y17.28240
X5.46100 Y17.28240
X5.46100 Y17.30780
X5.48640 Y17.30780
X5.48640 Y17.33320
X5.51180 Y17.33320
X5.51180 Y17.35860
X5.56260 Y17.35860
X5.56260 Y17.38400
X17.22120 Y17.38400
X17.22120 Y17.35860
X17.27200 Y17.35860
X17.27200 Y17.33320
X17.29740 Y17.33320
X17.29740 Y17.30780
G04 P0 ( dwell for no time -- G64 should not smooth over this point )
G01
G00 Z2.03200 ( retract )

G00 X37.51580 Y17.18080 ( rapid move to begin. )
G01 Z-0.15240
G04 P0 ( dwell for no time -- G64 should not smooth over this point )
G01
X37.51580 Y17.18080
X37.51580 Y15.86000
X35.91560 Y15.86000
X35.91560 Y16.36800
X35.12820 Y16.36800
X35.12820 Y16.34260
X35.10280 Y16.34260
X35.10280 Y16.31720
X35.07740 Y16.31720
X35.07740 Y16.29180
X35.05200 Y16.29180
X35.05200 Y16.26640
X35.02660 Y16.26640
X35.02660 Y16.24100
X35.00120 Y16.24100
X35.00120 Y16.21560
X34.97580 Y16.21560
X34.97580 Y16.19020
X34.95040 Y16.19020
X34.95040 Y16.16480
X34.92500 Y16.16480
X34.92500 Y16.13940
X34.89960 Y16.13940
X34.89960 Y16.11400
X34.87420 Y16.11400
X34.87420 Y16.08860
X34.84880 Y16.08860
X34.84880 Y16.06320
X34.82340 Y16.06320
X34.82340 Y16.03780
X34.79800 Y16.03780
X34.79800 Y16.01240
X34.77260 Y16.01240
X34.77260 Y15.98700
X34.74720 Y15.98700
X34.74720 Y15.96160
X34.72180 Y15.96160
X34.72180 Y15.93620
X34.69640 Y15.93620
X34.69640 Y15.91080
X34.67100 Y15.91080
X34.67100 Y15.88540
X34.64560 Y15.88540
X34.64560 Y15.86000
X34.62020 Y15.86000
X34.62020 Y15.83460
X34.59480 Y15.83460
X34.59480 Y15.80920
X34.56940 Y15.80920
X34.56940 Y15.78380
X34.54400 Y15.78380
X34.54400 Y15.75840
X34.51860 Y15.75840
X34.51860 Y15.73300
X34.49320 Y15.73300
X34.49320 Y15.70760
X34.46780 Y15.70760
X34.46780 Y15.68220
X34.44240 Y15.68220
X34.44240 Y15.65680
X34.41700 Y15.65680
X34.41700 Y15.63140
X34.39160 Y15.63140
X34.39160 Y15.60600
X34.36620 Y15.60600
X34.36620 Y15.58060
X34.34080 Y15.58060
X34.34080 Y15.55520
X34.31540 Y15.55520
X34.31540 Y15.52980
X34.29000 Y15.52980
X34.29000 Y15.50440
X34.26460 Y15.50440
X34.26460 Y15.47900
X34.23920 Y15.47900
X34.23920 Y15.45360
X34.21380 Y15.45360
X34.21380 Y15.42820
X34.18840 Y15.42820
X34.18840 Y15.40280
X34.16300 Y15.40280
X34.16300 Y15.37740
X34.13760 Y15.37740
X34.13760 Y15.35200
X34.11220 Y15.35200
X34.11220 Y15.32660
X34.08680 Y15.32660
X34.08680 Y15.30120
X34.06140 Y15.30120
X34.06140 Y15.27580
X34.03600 Y15.27580
X34.03600 Y15.25040
X34.01060 Y15.25040
X34.01060 Y15.22500
X33.98520 Y15.22500
X33.98520 Y15.19960
X33.95980 Y15.19960
X33.95980 Y15.17420
X33.93440 Y15.17420
X33.93440 Y15.14880
X33.90900 Y15.14880
X33.90900 Y15.12340
X33.88360 Y15.12340
X33.88360 Y15.09800
X33.85820 Y15.09800
X33.85820 Y15.07260
X33.83280 Y15.07260
X33.83280 Y15.04720
X33.80740 Y15.04720
X33.80740 Y15.02180
X33.78200 Y15.02180
X33.78200 Y14.99640
X33.75660 Y14.99640
X33.75660 Y14.97100
X33.73120 Y14.97100
X33.73120 Y14.94560
X33.70580 Y14.94560
X33.70580 Y14.92020
X33.68040 Y14.92020
X33.68040 Y14.89480
X33.65500 Y14.89480
X33.65500 Y14.86940
X33.62960 Y14.86940
X33.62960 Y14.84400
X33.60420 Y14.84400
X33.60420 Y14.81860
X33.57880 Y14.81860
X33.57880 Y14.79320
X33.55340 Y14.79320
X33.55340 Y14.76780
X33.52800 Y14.76780
X33.52800 Y14.74240
X33.50260 Y14.74240
X33.50260 Y14.71700
X33.47720 Y14.71700
X33.47720 Y14.69160
X33.45180 Y14.69160
X33.45180 Y14.66620
X33.42640 Y14.66620
X33.42640 Y14.64080
X33.40100 Y14.64080
X33.40100 Y14.61540
X33.37560 Y14.61540
X33.37560 Y14.59000
X33.35020 Y14.59000
X33.35020 Y14.56460
X33.32480 Y14.56460
X33.32480 Y14.53920
X33.29940 Y14.53920
X33.29940 Y14.51380
X33.27400 Y14.51380
X33.27400 Y14.48840
X33.24860 Y14.48840
X33.24860 Y14.46300
X33.22320 Y14.46300
X33.22320 Y14.43760
X33.19780 Y14.43760
X33.19780 Y14.41220
X33.17240 Y14.41220
X33.17240 Y14.38680
X33.14700 Y14.38680
X33.14700 Y14.36140
X33.12160 Y14.36140
X33.12160 Y14.33600
X33.09620 Y14.33600
X33.09620 Y14.31060
X33.07080 Y14.31060
X33.07080 Y14.28520
X33.04540 Y14.28520
X33.04540 Y14.25980
X33.02000 Y14.25980
X33.02000 Y14.23440
X32.99460 Y14.23440
X32.99460 Y14.20900
X32.96920 Y14.20900
X32.96920 Y14.18360
X32.94380 Y14.18360
X32.94380 Y14.15820
X32.91840 Y14.15820
X32.91840 Y14.13280
X32.89300 Y14.13280
X32.89300 Y14.10740
X32.86760 Y14.10740
X32.86760 Y14.08200
X32.84220 Y14.08200
X32.84220 Y14.05660
X32.81680 Y14.05660
X32.81680 Y14.03120
X32.79140 Y14.03120
X32.79140 Y14.00580
X32.76600 Y14.00580
X32.76600 Y13.98040
X32.74060 Y13.98040
X32.74060 Y13.95500
X32.71520 Y13.95500
X32.71520 Y13.92960
X32.68980 Y13.92960
X32.68980 Y13.90420
X32.66440 Y13.90420
X32.66440 Y13.87880
X32.63900 Y13.87880
X32.63900 Y13.85340
X32.61360 Y13.85340
X32.61360 Y13.82800
X32.58820 Y13.82800
X32.58820 Y13.80260
X32.56280 Y13.80260
X32.56280 Y13.77720
X32.53740 Y13.77720
X32.53740 Y13.75180
X32.51200 Y13.75180
X32.51200 Y13.72640
X32.48660 Y13.72640
X32.48660 Y13.70100
X32.46120 Y13.70100
X32.46120 Y13.67560
X32.43580 Y13.67560
X32.43580 Y13.65020
X32.41040 Y13.65020
X32.41040 Y13.62480
X32.38500 Y13.62480
X32.38500 Y13.59940
X32.35960 Y13.59940
X32.35960 Y13.57400
X32.33420 Y13.57400
X32.33420 Y13.54860
X32.30880 Y13.54860
X32.30880 Y13.52320
X32.28340 Y13.52320
X32.28340 Y13.49780
X32.25800 Y13.49780
X32.25800 Y13.47240
X32.23260 Y13.47240
X32.23260 Y13.44700
X32.20720 Y13.44700
X32.20720 Y13.42160
X32.18180 Y13.42160
X32.18180 Y13.39620
X32.15640 Y13.39620
X32.15640 Y13.37080
X32.13100 Y13.37080
X32.13100 Y13.34540
X32.10560 Y13.34540
X32.10560 Y13.32000
X32.08020 Y13.32000
X32.08020 Y13.29460
X32.05480 Y13.29460
X32.05480 Y13.26920
X32.02940 Y13.26920
X32.02940 Y13.01520
X30.42920 Y13.01520
X30.42920 Y13.75180
X31.90240 Y13.75180
X31.90240 Y13.77720
X31.92780 Y13.77720
X31.92780 Y13.80260
X31.95320 Y13.80260
X31.95320 Y13.82800
X31.97860 Y13.82800
X31.97860 Y13.85340
X32.00400 Y13.85340
X32.00400 Y13.87880
X32.02940 Y13.87880
X32.02940 Y13.90420
X32.05480 Y13.90420
X32.05480 Y13.92960
X32.08020 Y13.92960
X32.08020 Y13.95500
X32.10560 Y13.95500
X32.10560 Y13.98040
X32.13100 Y13.98040
X32.13100 Y14.00580
X32.15640 Y14.00580
X32.15640 Y14.03120
X32.18180 Y14.03120
X32.18180 Y14.05660
X32.20720 Y14.05660
X32.20720 Y14.08200
X32.23260 Y14.08200
X32.23260 Y14.10740
X32.25800 Y14.10740
X32.25800 Y14.13280
X32.28340 Y14.13280
X32.28340 Y14.15820
X32.30880 Y14.15820
X32.30880 Y14.18360
X32.33420 Y14.18360
X32.33420 Y14.20900
X32.35960 Y14.20900
X32.35960 Y14.23440
X32.38500 Y14.23440
X32.38500 Y14.25980
X32.41040 Y14.25980
X32.41040 Y14.28520
X32.43580 Y14.28520
X32.43580 Y14.31060
X32.46120 Y14.31060
X32.46120 Y14.33600
X32.48660 Y14.33600
X32.48660 Y14.36140
X32.51200 Y14.36140
X32.51200 Y14.38680
X32.53740 Y14.38680
X32.53740 Y14.41220
X32.56280 Y14.41220
X32.56280 Y14.43760
X32.58820 Y14.43760
X32.58820 Y14.46300
X32.61360 Y14.46300
X32.61360 Y14.48840
X32.63900 Y14.48840
X32.63900 Y14.51380
X32.66440 Y14.51380
X32.66440 Y14.53920
X32.68980 Y14.53920
X32.68980 Y14.56460
X32.71520 Y14.56460
X32.71520 Y14.59000
X32.74060 Y14.59000
X32.74060 Y14.61540
X32.76600 Y14.61540
X32.76600 Y14.64080
X32.79140 Y14.64080
X32.79140 Y14.66620
X32.81680 Y14.66620
X32.81680 Y14.69160
X32.84220 Y14.69160
X32.84220 Y14.71700
X32.86760 Y14.71700
X32.86760 Y14.74240
X32.89300 Y14.74240
X32.89300 Y14.76780
X32.91840 Y14.76780
X32.91840 Y14.79320
X32.94380 Y14.79320
X32.94380 Y14.81860
X32.96920 Y14.81860
X32.96920 Y14.84400
X32.99460 Y14.84400
X32.99460 Y14.86940
X33.02000 Y14.86940
X33.02000 Y14.89480
X33.04540 Y14.89480
X33.04540 Y14.92020
X33.07080 Y14.92020
X33.07080 Y14.94560
X33.09620 Y14.94560
X33.09620 Y14.97100
X33.12160 Y14.97100
X33.12160 Y14.99640
X33.14700 Y14.99640
X33.14700 Y15.02180
X33.17240 Y15.02180
X33.17240 Y15.04720
X33.19780 Y15.04720
X33.19780 Y15.07260
X33.22320 Y15.07260
X33.22320 Y15.09800
X33.24860 Y15.09800
X33.24860 Y15.12340
X33.27400 Y15.12340
X33.27400 Y15.14880
X33.29940 Y15.14880
X33.29940 Y15.17420
X33.32480 Y15.17420
X33.32480 Y15.19960
X33.35020 Y15.19960
X33.35020 Y15.22500
X33.37560 Y15.22500
X33.37560 Y15.25040
X33.40100 Y15.25040
X33.40100 Y15.27580
X33.42640 Y15.27580
X33.42640 Y15.30120
X33.45180 Y15.30120
X33.45180 Y15.32660
X33.47720 Y15.32660
X33.47720 Y15.35200
X33.50260 Y15.35200
X33.50260 Y15.37740
X33.52800 Y15.37740
X33.52800 Y15.40280
X33.55340 Y15.40280
X33.55340 Y15.42820
X33.57880 Y15.42820
X33.57880 Y15.45360
X33.60420 Y15.45360
X33.60420 Y15.47900
X33.62960 Y15.47900
X33.62960 Y15.50440
X33.65500 Y15.50440
X33.65500 Y15.52980
X33.68040 Y15.52980
X33.68040 Y15.55520
X33.70580 Y15.55520
X33.70580 Y15.58060
X33.73120 Y15.58060
X33.73120 Y15.60600
X33.75660 Y15.60600
X33.75660 Y15.63140
X33.78200 Y15.63140
X33.78200 Y15.65680
X33.80740 Y15.65680
X33.80740 Y15.68220
X33.83280 Y15.68220
X33.83280 Y15.70760
X33.85820 Y15.70760
X33.85820 Y15.73300
X33.88360 Y15.73300
X33.88360 Y15.75840
X33.90900 Y15.75840
X33.90900 Y15.78380
X33.93440 Y15.78380
X33.93440 Y15.80920
X33.95980 Y15.80920
X33.95980 Y15.83460
X33.98520 Y15.83460
X33.98520 Y15.86000
X34.01060 Y15.86000
X34.01060 Y15.88540
X34.03600 Y15.88540
X34.03600 Y15.91080
X34.06140 Y15.91080
X34.06140 Y15.93620
X34.08680 Y15.93620
X34.08680 Y15.96160
X34.11220 Y15.96160
X34.11220 Y15.98700
X34.13760 Y15.98700
X34.13760 Y16.01240
X34.16300 Y16.01240
X34.16300 Y16.03780
X34.18840 Y16.03780
X34.18840 Y16.06320
X34.21380 Y16.06320
X34.21380 Y16.08860
X34.23920 Y16.08860
X34.23920 Y16.11400
X34.26460 Y16.11400
X34.26460 Y16.13940
X34.29000 Y16.13940
X34.29000 Y16.16480
X34.31540 Y16.16480
X34.31540 Y16.19020
X34.34080 Y16.19020
X34.34080 Y16.21560
X34.36620 Y16.21560
X34.36620 Y16.24100
X34.39160 Y16.24100
X34.39160 Y16.26640
X34.41700 Y16.26640
X34.41700 Y16.29180
X34.44240 Y16.29180
X34.44240 Y16.31720
X34.46780 Y16.31720
X34.46780 Y16.34260
X34.49320 Y16.34260
X34.49320 Y16.36800
X34.51860 Y16.36800
X34.51860 Y16.39340
X34.54400 Y16.39340
X34.54400 Y16.41880
X34.56940 Y16.41880
X34.56940 Y16.44420
X34.59480 Y16.44420
X34.59480 Y16.46960
X34.62020 Y16.46960
X34.62020 Y16.49500
X34.64560 Y16.49500
X34.64560 Y16.52040
X34.67100 Y16.52040
X34.67100 Y16.54580
X34.69640 Y16.54580
X34.69640 Y16.57120
X34.72180 Y16.57120
X34.72180 Y16.59660
X34.74720 Y16.59660
X34.74720 Y16.62200
X34.77260 Y16.62200
X34.77260 Y16.64740
X34.79800 Y16.64740
X34.79800 Y16.67280
X34.82340 Y16.67280
X34.82340 Y16.69820
X34.84880 Y16.69820
X34.84880 Y16.72360
X34.89960 Y16.72360
X34.89960 Y16.74900
X35.91560 Y16.74900
X35.91560 Y17.25700
X37.51580 Y17.25700
X37.51580 Y17.18080
G04 P0 ( dwell for no time -- G64 should not smooth over this point )
G01
G00 Z2.03200 ( retract )

G00 X40.20820 Y17.18080 ( rapid move to begin. )
G01 Z-0.15240
G04 P0 ( dwell for no time -- G64 should not smooth over this point )
G01
X40.20820 Y17.18080
X40.20820 Y16.74900
X40.99560 Y16.74900
X40.99560 Y17.25700
X42.59580 Y17.25700
X42.59580 Y15.86000
X40.99560 Y15.86000
X40.99560 Y16.36800
X40.20820 Y16.36800
X40.20820 Y15.86000
X38.60800 Y15.86000
X38.60800 Y17.25700
X40.20820 Y17.25700
X40.20820 Y17.18080
G04 P0 ( dwell for no time -- G64 should not smooth over this point )
G01
G00 Z2.03200 ( retract )

G00 X16.89100 Y16.24100 ( rapid move to begin. )
G01 Z-0.15240
G04 P0 ( dwell for no time -- G64 should not smooth over this point )
G01
X16.89100 Y16.24100
X16.89100 Y15.52980
X15.08760 Y15.52980
X15.08760 Y16.31720
X16.89100 Y16.31720
X16.89100 Y16.24100
G04 P0 ( dwell for no time -- G64 should not smooth over this point )
G01
G00 Z2.03200 ( retract )

G00 X24.20620 Y16.24100 ( rapid move to begin. )
G01 Z-0.15240
G04 P0 ( dwell for no time -- G64 should not smooth over this point )
G01
X24.20620 Y16.24100
X24.20620 Y16.11400
X25.04440 Y16.11400
X25.04440 Y16.29180
X26.64460 Y16.29180
X26.64460 Y15.55520
X25.04440 Y15.55520
X25.04440 Y15.73300
X24.20620 Y15.73300
X24.20620 Y15.52980
X22.40280 Y15.52980
X22.40280 Y15.73300
X22.04720 Y15.73300
X22.04720 Y15.70760
X22.02180 Y15.70760
X22.02180 Y15.68220
X21.99640 Y15.68220
X21.99640 Y15.65680
X21.97100 Y15.65680
X21.97100 Y15.63140
X21.94560 Y15.63140
X21.94560 Y15.60600
X21.92020 Y15.60600
X21.92020 Y15.58060
X21.89480 Y15.58060
X21.89480 Y15.55520
X21.86940 Y15.55520
X21.86940 Y15.52980
X21.84400 Y15.52980
X21.84400 Y15.50440
X21.81860 Y15.50440
X21.81860 Y15.47900
X21.79320 Y15.47900
X21.79320 Y15.45360
X21.76780 Y15.45360
X21.76780 Y15.42820
X21.74240 Y15.42820
X21.74240 Y15.40280
X21.71700 Y15.40280
X21.71700 Y15.37740
X21.69160 Y15.37740
X21.69160 Y15.35200
X21.66620 Y15.35200
X21.66620 Y15.32660
X21.64080 Y15.32660
X21.64080 Y15.30120
X21.61540 Y15.30120
X21.61540 Y15.27580
X21.59000 Y15.27580
X21.59000 Y15.25040
X21.56460 Y15.25040
X21.56460 Y15.22500
X21.53920 Y15.22500
X21.53920 Y15.19960
X21.51380 Y15.19960
X21.51380 Y15.17420
X21.48840 Y15.17420
X21.48840 Y15.14880
X21.46300 Y15.14880
X21.46300 Y15.12340
X21.43760 Y15.12340
X21.43760 Y15.09800
X21.41220 Y15.09800
X21.41220 Y15.07260
X21.38680 Y15.07260
X21.38680 Y15.04720
X21.36140 Y15.04720
X21.36140 Y15.02180
X21.33600 Y15.02180
X21.33600 Y14.99640
X21.31060 Y14.99640
X21.31060 Y14.97100
X21.28520 Y14.97100
X21.28520 Y14.94560
X21.25980 Y14.94560
X21.25980 Y14.92020
X21.23440 Y14.92020
X21.23440 Y9.81480
X21.25980 Y9.81480
X21.25980 Y9.78940
X21.28520 Y9.78940
X21.28520 Y9.76400
X21.31060 Y9.76400
X21.31060 Y9.73860
X21.33600 Y9.73860
X21.33600 Y9.71320
X21.36140 Y9.71320
X21.36140 Y9.68780
X21.38680 Y9.68780
X21.38680 Y9.66240
X21.41220 Y9.66240
X21.41220 Y9.63700
X21.43760 Y9.63700
X21.43760 Y9.61160
X21.46300 Y9.61160
X21.46300 Y9.58620
X21.48840 Y9.58620
X21.48840 Y9.56080
X21.51380 Y9.56080
X21.51380 Y9.53540
X21.53920 Y9.53540
X21.53920 Y9.51000
X21.56460 Y9.51000
X21.56460 Y9.48460
X21.59000 Y9.48460
X21.59000 Y9.45920
X21.61540 Y9.45920
X21.61540 Y9.43380
X21.64080 Y9.43380
X21.64080 Y9.40840
X21.66620 Y9.40840
X21.66620 Y9.38300
X21.69160 Y9.38300
X21.69160 Y9.35760
X21.71700 Y9.35760
X21.71700 Y9.33220
X21.74240 Y9.33220
X21.74240 Y9.30680
X21.76780 Y9.30680
X21.76780 Y9.28140
X21.79320 Y9.28140
X21.79320 Y9.25600
X21.81860 Y9.25600
X21.81860 Y9.23060
X21.84400 Y9.23060
X21.84400 Y9.20520
X21.86940 Y9.20520
X21.86940 Y9.17980
X21.89480 Y9.17980
X21.89480 Y9.15440
X21.92020 Y9.15440
X21.92020 Y9.12900
X21.94560 Y9.12900
X21.94560 Y9.10360
X21.97100 Y9.10360
X21.97100 Y9.07820
X21.99640 Y9.07820
X21.99640 Y9.05280
X22.02180 Y9.05280
X22.02180 Y9.02740
X22.04720 Y9.02740
X22.04720 Y9.00200
X22.07260 Y9.00200
X22.07260 Y8.97660
X22.09800 Y8.97660
X22.09800 Y8.95120
X22.12340 Y8.95120
X22.12340 Y8.92580
X22.14880 Y8.92580
X22.14880 Y8.90040
X22.17420 Y8.90040
X22.17420 Y8.87500
X22.19960 Y8.87500
X22.19960 Y8.84960
X22.22500 Y8.84960
X22.22500 Y8.82420
X22.25040 Y8.82420
X22.25040 Y8.79880
X22.27580 Y8.79880
X22.27580 Y8.77340
X22.30120 Y8.77340
X22.30120 Y8.74800
X22.32660 Y8.74800
X22.32660 Y8.72260
X22.35200 Y8.72260
X22.35200 Y8.69720
X22.37740 Y8.69720
X22.37740 Y8.67180
X22.40280 Y8.67180
X22.40280 Y8.64640
X22.42820 Y8.64640
X22.42820 Y8.62100
X22.45360 Y8.62100
X22.45360 Y8.59560
X22.47900 Y8.59560
X22.47900 Y8.57020
X22.50440 Y8.57020
X22.50440 Y8.54480
X22.52980 Y8.54480
X22.52980 Y8.51940
X22.55520 Y8.51940
X22.55520 Y8.49400
X25.04440 Y8.49400
X25.04440 Y8.67180
X26.64460 Y8.67180
X26.64460 Y7.93520
X25.04440 Y7.93520
X25.04440 Y8.11300
X15.69720 Y8.11300
X15.69720 Y8.08760
X15.67180 Y8.08760
X15.67180 Y8.06220
X15.64640 Y8.06220
X15.64640 Y8.03680
X15.62100 Y8.03680
X15.62100 Y8.01140
X15.59560 Y8.01140
X15.59560 Y7.98600
X15.57020 Y7.98600
X15.57020 Y7.96060
X15.54480 Y7.96060
X15.54480 Y7.93520
X15.51940 Y7.93520
X15.51940 Y7.90980
X15.49400 Y7.90980
X15.49400 Y7.88440
X15.46860 Y7.88440
X15.46860 Y7.85900
X15.44320 Y7.85900
X15.44320 Y7.83360
X15.41780 Y7.83360
X15.41780 Y7.80820
X15.39240 Y7.80820
X15.39240 Y7.78280
X15.36700 Y7.78280
X15.36700 Y7.75740
X15.34160 Y7.75740
X15.34160 Y7.73200
X15.31620 Y7.73200
X15.31620 Y7.70660
X15.29080 Y7.70660
X15.29080 Y7.68120
X15.26540 Y7.68120
X15.26540 Y7.65580
X15.24000 Y7.65580
X15.24000 Y7.63040
X15.21460 Y7.63040
X15.21460 Y7.60500
X15.18920 Y7.60500
X15.18920 Y7.57960
X15.16380 Y7.57960
X15.16380 Y7.55420
X15.13840 Y7.55420
X15.13840 Y7.52880
X15.11300 Y7.52880
X15.11300 Y7.50340
X15.08760 Y7.50340
X15.08760 Y7.47800
X15.06220 Y7.47800
X15.06220 Y7.45260
X15.03680 Y7.45260
X15.03680 Y7.42720
X15.01140 Y7.42720
X15.01140 Y7.40180
X14.98600 Y7.40180
X14.98600 Y7.37640
X14.96060 Y7.37640
X14.96060 Y7.35100
X14.93520 Y7.35100
X14.93520 Y7.32560
X14.90980 Y7.32560
X14.90980 Y7.30020
X14.88440 Y7.30020
X14.88440 Y7.27480
X14.85900 Y7.27480
X14.85900 Y7.24940
X14.83360 Y7.24940
X14.83360 Y7.22400
X14.80820 Y7.22400
X14.80820 Y7.19860
X14.78280 Y7.19860
X14.78280 Y7.17320
X14.75740 Y7.17320
X14.75740 Y7.14780
X14.73200 Y7.14780
X14.73200 Y7.12240
X14.70660 Y7.12240
X14.70660 Y7.09700
X14.68120 Y7.09700
X14.68120 Y7.07160
X14.65580 Y7.07160
X14.65580 Y7.04620
X14.63040 Y7.04620
X14.63040 Y7.02080
X14.60500 Y7.02080
X14.60500 Y6.99540
X14.57960 Y6.99540
X14.57960 Y6.97000
X14.55420 Y6.97000
X14.55420 Y6.94460
X14.52880 Y6.94460
X14.52880 Y6.91920
X14.50340 Y6.91920
X14.50340 Y6.89380
X14.47800 Y6.89380
X14.47800 Y6.86840
X14.45260 Y6.86840
X14.45260 Y6.84300
X14.42720 Y6.84300
X14.42720 Y6.81760
X14.40180 Y6.81760
X14.40180 Y6.79220
X14.37640 Y6.79220
X14.37640 Y6.76680
X14.35100 Y6.76680
X14.35100 Y6.74140
X14.32560 Y6.74140
X14.32560 Y6.71600
X14.30020 Y6.71600
X14.30020 Y6.69060
X14.27480 Y6.69060
X14.27480 Y6.66520
X14.24940 Y6.66520
X14.24940 Y6.63980
X14.22400 Y6.63980
X14.22400 Y6.61440
X14.19860 Y6.61440
X14.19860 Y6.58900
X14.17320 Y6.58900
X14.17320 Y6.56360
X14.14780 Y6.56360
X14.14780 Y6.53820
X14.12240 Y6.53820
X14.12240 Y6.51280
X14.09700 Y6.51280
X14.09700 Y6.48740
X14.07160 Y6.48740
X14.07160 Y6.46200
X14.04620 Y6.46200
X14.04620 Y6.43660
X14.02080 Y6.43660
X14.02080 Y6.41120
X13.99540 Y6.41120
X13.99540 Y6.38580
X13.97000 Y6.38580
X13.97000 Y6.36040
X13.94460 Y6.36040
X13.94460 Y6.33500
X13.91920 Y6.33500
X13.91920 Y6.30960
X13.89380 Y6.30960
X13.89380 Y6.28420
X13.86840 Y6.28420
X13.86840 Y6.25880
X13.84300 Y6.25880
X13.84300 Y6.23340
X13.81760 Y6.23340
X13.81760 Y6.20800
X13.79220 Y6.20800
X13.79220 Y6.18260
X13.76680 Y6.18260
X13.76680 Y6.15720
X13.74140 Y6.15720
X13.74140 Y6.13180
X13.71600 Y6.13180
X13.71600 Y6.10640
X13.69060 Y6.10640
X13.69060 Y6.08100
X13.66520 Y6.08100
X13.66520 Y6.05560
X13.63980 Y6.05560
X13.63980 Y6.03020
X13.61440 Y6.03020
X13.61440 Y6.00480
X13.58900 Y6.00480
X13.58900 Y5.97940
X13.56360 Y5.97940
X13.56360 Y5.95400
X13.53820 Y5.95400
X13.53820 Y5.92860
X13.51280 Y5.92860
X13.51280 Y5.90320
X13.48740 Y5.90320
X13.48740 Y5.87780
X13.46200 Y5.87780
X13.46200 Y5.85240
X13.43660 Y5.85240
X13.43660 Y5.82700
X13.41120 Y5.82700
X13.41120 Y5.80160
X13.38580 Y5.80160
X13.38580 Y5.77620
X13.36040 Y5.77620
X13.36040 Y5.75080
X13.33500 Y5.75080
X13.33500 Y5.72540
X13.30960 Y5.72540
X13.30960 Y5.70000
X13.28420 Y5.70000
X13.28420 Y5.67460
X13.25880 Y5.67460
X13.25880 Y5.64920
X13.23340 Y5.64920
X13.23340 Y5.62380
X13.20800 Y5.62380
X13.20800 Y5.59840
X13.18260 Y5.59840
X13.18260 Y5.57300
X13.15720 Y5.57300
X13.15720 Y5.54760
X13.13180 Y5.54760
X13.13180 Y5.52220
X13.10640 Y5.52220
X13.10640 Y5.49680
X13.08100 Y5.49680
X13.08100 Y5.47140
X13.05560 Y5.47140
X13.05560 Y5.44600
X13.03020 Y5.44600
X13.03020 Y5.42060
X13.00480 Y5.42060
X13.00480 Y5.39520
X12.97940 Y5.39520
X12.97940 Y5.36980
X12.95400 Y5.36980
X12.95400 Y5.34440
X12.92860 Y5.34440
X12.92860 Y5.31900
X12.90320 Y5.31900
X12.90320 Y5.29360
X12.87780 Y5.29360
X12.87780 Y5.26820
X12.85240 Y5.26820
X12.85240 Y5.24280
X12.82700 Y5.24280
X12.82700 Y5.21740
X12.80160 Y5.21740
X12.80160 Y5.19200
X12.77620 Y5.19200
X12.77620 Y5.16660
X12.75080 Y5.16660
X12.75080 Y5.14120
X12.72540 Y5.14120
X12.72540 Y5.11580
X12.70000 Y5.11580
X12.70000 Y5.09040
X12.67460 Y5.09040
X12.67460 Y5.06500
X12.64920 Y5.06500
X12.64920 Y5.03960
X12.62380 Y5.03960
X12.62380 Y5.01420
X12.59840 Y5.01420
X12.59840 Y4.98880
X12.57300 Y4.98880
X12.57300 Y4.96340
X12.54760 Y4.96340
X12.54760 Y4.93800
X12.52220 Y4.93800
X12.52220 Y4.91260
X12.49680 Y4.91260
X12.49680 Y4.88720
X12.47140 Y4.88720
X12.47140 Y4.86180
X12.44600 Y4.86180
X12.44600 Y4.83640
X12.42060 Y4.83640
X12.42060 Y4.81100
X12.39520 Y4.81100
X12.39520 Y4.78560
X12.36980 Y4.78560
X12.36980 Y4.76020
X12.34440 Y4.76020
X12.34440 Y4.73480
X12.31900 Y4.73480
X12.31900 Y4.70940
X12.29360 Y4.70940
X12.29360 Y4.68400
X12.26820 Y4.68400
X12.26820 Y4.65860
X12.24280 Y4.65860
X12.24280 Y4.63320
X12.21740 Y4.63320
X12.21740 Y4.60780
X12.19200 Y4.60780
X12.19200 Y4.58240
X12.16660 Y4.58240
X12.16660 Y4.55700
X12.14120 Y4.55700
X12.14120 Y4.53160
X12.11580 Y4.53160
X12.11580 Y4.50620
X12.09040 Y4.50620
X12.09040 Y4.48080
X12.06500 Y4.48080
X12.06500 Y4.45540
X12.03960 Y4.45540
X12.03960 Y4.43000
X12.01420 Y4.43000
X12.01420 Y4.40460
X11.98880 Y4.40460
X11.98880 Y4.37920
X11.96340 Y4.37920
X11.96340 Y4.35380
X11.93800 Y4.35380
X11.93800 Y4.32840
X11.91260 Y4.32840
X11.91260 Y4.30300
X11.88720 Y4.30300
X11.88720 Y4.27760
X11.86180 Y4.27760
X11.86180 Y4.25220
X11.83640 Y4.25220
X11.83640 Y4.22680
X11.81100 Y4.22680
X11.81100 Y4.20140
X11.78560 Y4.20140
X11.78560 Y4.17600
X11.76020 Y4.17600
X11.76020 Y4.15060
X11.73480 Y4.15060
X11.73480 Y4.12520
X11.70940 Y4.12520
X11.70940 Y4.09980
X11.68400 Y4.09980
X11.68400 Y4.07440
X11.65860 Y4.07440
X11.65860 Y4.04900
X11.63320 Y4.04900
X11.63320 Y4.02360
X11.60780 Y4.02360
X11.60780 Y3.99820
X11.58240 Y3.99820
X11.58240 Y3.97280
X11.55700 Y3.97280
X11.55700 Y3.94740
X11.53160 Y3.94740
X11.53160 Y3.92200
X11.50620 Y3.92200
X11.50620 Y3.89660
X11.48080 Y3.89660
X11.48080 Y3.87120
X11.45540 Y3.87120
X11.45540 Y3.84580
X11.43000 Y3.84580
X11.43000 Y3.82040
X11.40460 Y3.82040
X11.40460 Y3.79500
X11.37920 Y3.79500
X11.37920 Y3.76960
X11.35380 Y3.76960
X11.35380 Y3.74420
X11.32840 Y3.74420
X11.32840 Y3.71880
X11.30300 Y3.71880
X11.30300 Y3.69340
X11.27760 Y3.69340
X11.27760 Y3.66800
X11.25220 Y3.66800
X11.25220 Y3.64260
X11.22680 Y3.64260
X11.22680 Y3.61720
X11.20140 Y3.61720
X11.20140 Y3.59180
X11.17600 Y3.59180
X11.17600 Y3.56640
X11.15060 Y3.56640
X11.15060 Y3.54100
X11.12520 Y3.54100
X11.12520 Y3.51560
X11.09980 Y3.51560
X11.09980 Y3.49020
X11.07440 Y3.49020
X11.07440 Y3.46480
X11.04900 Y3.46480
X11.04900 Y3.43940
X11.02360 Y3.43940
X11.02360 Y3.41400
X10.99820 Y3.41400
X10.99820 Y3.38860
X10.97280 Y3.38860
X10.97280 Y3.36320
X10.94740 Y3.36320
X10.94740 Y3.33780
X10.92200 Y3.33780
X10.92200 Y3.31240
X10.89660 Y3.31240
X10.89660 Y3.28700
X10.87120 Y3.28700
X10.87120 Y3.26160
X10.84580 Y3.26160
X10.84580 Y3.23620
X10.82040 Y3.23620
X10.82040 Y3.21080
X10.79500 Y3.21080
X10.79500 Y3.18540
X10.74420 Y3.18540
X10.74420 Y3.16000
X5.43560 Y3.16000
X5.43560 Y3.18540
X5.38480 Y3.18540
X5.38480 Y3.21080
X5.35940 Y3.21080
X5.35940 Y3.23620
X5.33400 Y3.23620
X5.33400 Y3.26160
X5.30860 Y3.26160
X5.30860 Y3.28700
X5.28320 Y3.28700
X5.28320 Y3.31240
X5.25780 Y3.31240
X5.25780 Y3.33780
X5.23240 Y3.33780
X5.23240 Y3.36320
X5.20700 Y3.36320
X5.20700 Y3.38860
X5.18160 Y3.38860
X5.18160 Y3.41400
X5.15620 Y3.41400
X5.15620 Y3.43940
X5.13080 Y3.43940
X5.13080 Y3.46480
X5.10540 Y3.46480
X5.10540 Y3.49020
X5.08000 Y3.49020
X5.08000 Y3.51560
X5.05460 Y3.51560
X5.05460 Y3.54100
X5.02920 Y3.54100
X5.02920 Y3.56640
X5.00380 Y3.56640
X5.00380 Y3.59180
X4.97840 Y3.59180
X4.97840 Y3.61720
X4.95300 Y3.61720
X4.95300 Y3.64260
X4.92760 Y3.64260
X4.92760 Y3.66800
X4.90220 Y3.66800
X4.90220 Y3.69340
X4.87680 Y3.69340
X4.87680 Y3.74420
X4.85140 Y3.74420
X4.85140 Y5.75080
X4.87680 Y5.75080
X4.87680 Y5.80160
X4.90220 Y5.80160
X4.90220 Y5.82700
X4.92760 Y5.82700
X4.92760 Y5.85240
X4.95300 Y5.85240
X4.95300 Y5.87780
X4.97840 Y5.87780
X4.97840 Y5.90320
X5.00380 Y5.90320
X5.00380 Y5.92860
X5.02920 Y5.92860
X5.02920 Y5.95400
X5.05460 Y5.95400
X5.05460 Y5.97940
X5.08000 Y5.97940
X5.08000 Y6.00480
X5.10540 Y6.00480
X5.10540 Y6.03020
X5.13080 Y6.03020
X5.13080 Y6.05560
X5.15620 Y6.05560
X5.15620 Y6.08100
X5.18160 Y6.08100
X5.18160 Y6.10640
X5.20700 Y6.10640
X5.20700 Y6.13180
X5.23240 Y6.13180
X5.23240 Y6.15720
X5.25780 Y6.15720
X5.25780 Y6.18260
X5.28320 Y6.18260
X5.28320 Y6.20800
X5.30860 Y6.20800
X5.30860 Y6.23340
X5.33400 Y6.23340
X5.33400 Y6.25880
X5.35940 Y6.25880
X5.35940 Y6.28420
X5.38480 Y6.28420
X5.38480 Y6.30960
X5.41020 Y6.30960
X5.41020 Y6.33500
X5.43560 Y6.33500
X5.43560 Y6.36040
X5.46100 Y6.36040
X5.46100 Y6.38580
X5.48640 Y6.38580
X5.48640 Y6.41120
X5.51180 Y6.41120
X5.51180 Y6.43660
X5.53720 Y6.43660
X5.53720 Y6.46200
X5.56260 Y6.46200
X5.56260 Y6.48740
X5.58800 Y6.48740
X5.58800 Y6.51280
X5.61340 Y6.51280
X5.61340 Y6.53820
X5.63880 Y6.53820
X5.63880 Y6.56360
X5.66420 Y6.56360
X5.66420 Y6.58900
X5.68960 Y6.58900
X5.68960 Y6.61440
X5.71500 Y6.61440
X5.71500 Y6.63980
X5.74040 Y6.63980
X5.74040 Y6.66520
X5.76580 Y6.66520
X5.76580 Y6.69060
X5.79120 Y6.69060
X5.79120 Y6.71600
X5.81660 Y6.71600
X5.81660 Y6.74140
X5.84200 Y6.74140
X5.84200 Y6.76680
X5.86740 Y6.76680
X5.86740 Y6.79220
X5.89280 Y6.79220
X5.89280 Y6.81760
X5.84200 Y6.81760
X5.84200 Y6.84300
X5.81660 Y6.84300
X5.81660 Y6.86840
X5.79120 Y6.86840
X5.79120 Y6.89380
X5.74040 Y6.89380
X5.74040 Y6.91920
X5.71500 Y6.91920
X5.71500 Y6.94460
X5.66420 Y6.94460
X5.66420 Y6.97000
X5.63880 Y6.97000
X5.63880 Y6.99540
X5.61340 Y6.99540
X5.61340 Y7.02080
X5.58800 Y7.02080
X5.58800 Y7.04620
X5.56260 Y7.04620
X5.56260 Y7.09700
X5.53720 Y7.09700
X5.53720 Y7.14780
X5.51180 Y7.14780
X5.51180 Y7.17320
X5.48640 Y7.17320
X5.48640 Y7.22400
X5.46100 Y7.22400
X5.46100 Y7.27480
X5.43560 Y7.27480
X5.43560 Y7.37640
X5.41020 Y7.37640
X5.41020 Y7.52880
X5.38480 Y7.52880
X5.38480 Y7.80820
X5.41020 Y7.80820
X5.41020 Y7.96060
X5.43560 Y7.96060
X5.43560 Y8.06220
X5.46100 Y8.06220
X5.46100 Y8.11300
X5.48640 Y8.11300
X5.48640 Y8.16380
X5.51180 Y8.16380
X5.51180 Y8.18920
X5.53720 Y8.18920
X5.53720 Y8.24000
X5.56260 Y8.24000
X5.56260 Y8.29080
X5.58800 Y8.29080
X5.58800 Y8.31620
X5.61340 Y8.31620
X5.61340 Y8.34160
X5.63880 Y8.34160
X5.63880 Y8.36700
X5.66420 Y8.36700
X5.66420 Y8.39240
X5.71500 Y8.39240
X5.71500 Y8.41780
X5.74040 Y8.41780
X5.74040 Y8.44320
X5.79120 Y8.44320
X5.79120 Y8.46860
X5.81660 Y8.46860
X5.81660 Y8.49400
X5.84200 Y8.49400
X5.84200 Y8.51940
X5.89280 Y8.51940
X5.89280 Y8.54480
X5.94360 Y8.54480
X5.94360 Y11.38960
X5.53720 Y11.38960
X5.53720 Y12.10080
X5.51180 Y12.10080
X5.51180 Y12.12620
X5.48640 Y12.12620
X5.48640 Y12.15160
X5.46100 Y12.15160
X5.46100 Y12.17700
X5.43560 Y12.17700
X5.43560 Y12.20240
X5.41020 Y12.20240
X5.41020 Y12.22780
X5.38480 Y12.22780
X5.38480 Y12.25320
X5.35940 Y12.25320
X5.35940 Y12.27860
X5.33400 Y12.27860
X5.33400 Y12.30400
X5.30860 Y12.30400
X5.30860 Y12.32940
X5.28320 Y12.32940
X5.28320 Y12.35480
X5.25780 Y12.35480
X5.25780 Y12.38020
X5.23240 Y12.38020
X5.23240 Y12.40560
X5.20700 Y12.40560
X5.20700 Y12.43100
X5.18160 Y12.43100
X5.18160 Y12.45640
X5.15620 Y12.45640
X5.15620 Y12.48180
X5.13080 Y12.48180
X5.13080 Y12.50720
X5.10540 Y12.50720
X5.10540 Y12.53260
X5.08000 Y12.53260
X5.08000 Y12.55800
X4.54660 Y12.55800
X4.54660 Y12.35480
X3.35280 Y12.35480
X3.35280 Y13.14220
X4.54660 Y13.14220
X4.54660 Y12.93900
X5.30860 Y12.93900
X5.30860 Y12.91360
X5.33400 Y12.91360
X5.33400 Y12.88820
X5.38480 Y12.88820
X5.38480 Y12.86280
X5.41020 Y12.86280
X5.41020 Y12.81200
X5.43560 Y12.81200
X5.43560 Y12.78660
X5.46100 Y12.78660
X5.46100 Y12.76120
X5.48640 Y12.76120
X5.48640 Y12.73580
X5.51180 Y12.73580
X5.51180 Y12.71040
X5.53720 Y12.71040
X5.53720 Y12.68500
X5.56260 Y12.68500
X5.56260 Y12.65960
X5.58800 Y12.65960
X5.58800 Y12.63420
X5.61340 Y12.63420
X5.61340 Y12.60880
X5.63880 Y12.60880
X5.63880 Y12.58340
X5.66420 Y12.58340
X5.66420 Y12.55800
X5.68960 Y12.55800
X5.68960 Y12.53260
X5.71500 Y12.53260
X5.71500 Y12.50720
X5.74040 Y12.50720
X5.74040 Y12.48180
X5.76580 Y12.48180
X5.76580 Y12.45640
X5.79120 Y12.45640
X5.79120 Y12.43100
X5.81660 Y12.43100
X5.81660 Y12.40560
X5.84200 Y12.40560
X5.84200 Y12.38020
X5.86740 Y12.38020
X5.86740 Y12.35480
X5.89280 Y12.35480
X5.89280 Y12.32940
X5.91820 Y12.32940
X5.91820 Y12.30400
X5.94360 Y12.30400
X5.94360 Y12.27860
X5.96900 Y12.27860
X5.96900 Y12.25320
X5.99440 Y12.25320
X5.99440 Y12.22780
X6.01980 Y12.22780
X6.01980 Y12.20240
X6.04520 Y12.20240
X6.04520 Y12.17700
X6.73100 Y12.17700
X6.73100 Y11.38960
X6.32460 Y11.38960
X6.32460 Y8.59560
X6.50240 Y8.59560
X6.50240 Y8.57020
X6.62940 Y8.57020
X6.62940 Y8.54480
X6.73100 Y8.54480
X6.73100 Y8.51940
X6.78180 Y8.51940
X6.78180 Y8.49400
X6.80720 Y8.49400
X6.80720 Y8.46860
X6.83260 Y8.46860
X6.83260 Y8.44320
X6.88340 Y8.44320
X6.88340 Y8.41780
X6.90880 Y8.41780
X6.90880 Y8.39240
X6.95960 Y8.39240
X6.95960 Y8.36700
X6.98500 Y8.36700
X6.98500 Y8.34160
X7.01040 Y8.34160
X7.01040 Y8.31620
X7.03580 Y8.31620
X7.03580 Y8.29080
X7.06120 Y8.29080
X7.06120 Y8.24000
X7.08660 Y8.24000
X7.08660 Y8.18920
X7.11200 Y8.18920
X7.11200 Y8.16380
X7.13740 Y8.16380
X7.13740 Y8.11300
X7.16280 Y8.11300
X7.16280 Y8.06220
X7.18820 Y8.06220
X7.18820 Y7.96060
X7.21360 Y7.96060
X7.21360 Y7.80820
X7.23900 Y7.80820
X7.23900 Y7.52880
X7.21360 Y7.52880
X7.21360 Y7.37640
X7.18820 Y7.37640
X7.18820 Y7.27480
X7.16280 Y7.27480
X7.16280 Y7.22400
X7.13740 Y7.22400
X7.13740 Y7.17320
X7.11200 Y7.17320
X7.11200 Y7.14780
X7.08660 Y7.14780
X7.08660 Y7.09700
X7.06120 Y7.09700
X7.06120 Y7.04620
X7.03580 Y7.04620
X7.03580 Y7.02080
X7.01040 Y7.02080
X7.01040 Y6.99540
X6.98500 Y6.99540
X6.98500 Y6.97000
X6.95960 Y6.97000
X6.95960 Y6.94460
X6.90880 Y6.94460
X6.90880 Y6.91920
X6.88340 Y6.91920
X6.88340 Y6.89380
X6.83260 Y6.89380
X6.83260 Y6.86840
X6.80720 Y6.86840
X6.80720 Y6.84300
X6.78180 Y6.84300
